!!!!SEGMENT: pl-wtm--r-711-m--002_moniuszko-stanislaw--litania-ostrobramska-christe-audi-nos.krn
!!!cenid: 18xx:1736
!!!COM: Moniuszko, Stanisław
!!!COM-rismID: pe30008351
!!!CDT: 1819/05/05-1872/06/04
!!!CNT: Polish
!!!OPR: Litania Ostrobramska
!!!OTL: Christe audi nos
!!!OMV: 002
!!!PDT: 1849
!!!AGN: Sacred; Mass
!!!SMS-siglum: PL-Wtm
!!!SMS-shelfmark: R 711/M
!!!SMS-shelfwork: 001-002 M
!!!SMS-variant:
!!!SMS-altvar:
!!!NIFC-rismSourceID: 1001091106
!!!NIFC-rismChildID: 1001091106
!!!NIFC-islandoraID:
!!!URL-pdf-islandora:
!!!URL-scan:
!!!ONB-nifc: UWAGA: części Litanii: 1. Kyrie, 2. Christe audi nos, 3. Ora pro nobis, 4. Rosa mistica, 5. Agnus Dei
!!!OMD: No 2. Grave
!!!AIN: 1 cbass 1 cello 1 clars 1 cor 4 empty 1 fagot 1 flt 1 oboe 1 tromp 1 tromt 1 viola 2 violn
!!!key:
**kern	**dynam	**kern	**dynam	**kern	**text	**dynam	**kern	**text	**dynam	**kern	**text	**dynam	**kern	**text	**dynam	**kern	**dynam	**kern	**dynam	**kern	**dynam	**kern	**dynam	**kern	**dynam	**kern	**dynam	**kern	**dynam	**kern	**dynam	**kern	**dynam	**kern	**dynam
*part16	*part16	*part15	*part15	*part14	*part14	*part14	*part13	*part13	*part13	*part12	*part12	*part12	*part11	*part11	*part11	*part10	*part10	*part9	*part9	*part8	*part8	*part7	*part7	*part6	*part6	*part5	*part5	*part4	*part4	*part3	*part3	*part2	*part2	*part1	*part1
*group5	*	*group5	*	*group4	*	*	*group4	*	*	*group4	*	*	*group4	*	*	*group3	*	*group3	*	*group3	*	*group2	*	*group2	*	*group2	*	*group1	*	*group1	*	*group1	*	*group1	*
*	*	*	*	*	*	*	*	*	*	*	*	*	*I""[Coro]	*	*	*	*	*	*	*	*	*	*	*	*	*	*	*	*	*	*	*	*	*	*
*staff16	*	*staff15	*	*staff14	*staff14	*	*staff13	*staff13	*	*staff12	*staff12	*	*staff11	*staff11	*	*staff10	*	*staff9	*	*staff8	*	*staff7	*	*staff6	*	*staff5	*	*staff4	*	*staff3	*	*staff2	*	*staff1	*
*Icbass	*	*Icello	*	*Iempty	*	*	*Iempty	*	*	*Iempty	*	*	*Iempty	*	*	*Iviola	*	*Ivioln	*	*Ivioln	*	*Itromt	*	*Itromp	*	*Icor	*	*Ifagot	*	*Iclars	*	*Ioboe	*	*Iflt	*
*I"Cbs	*	*I"Vcllo.	*	*	*	*	*	*	*	*	*	*	*	*	*	*I"Vla.	*	*I"V. 2.	*	*I"V. 1.	*	*I"Trombon.	*	*I"Trombe in D.	*	*I"Corni. in F.	*	*I"Fagotti.	*	*I"Clarinetti. in C.	*	*I"Oboe.	*	*I"Flauti.	*
*clefF4	*	*clefF4	*	*clefF4	*	*	*clefC4	*	*	*clefC3	*	*	*clefC1	*	*	*clefC3	*	*clefG2	*	*clefG2	*	*clefF4	*	*clefG2	*	*clefG2	*	*clefF4	*	*clefG2	*	*clefG2	*	*clefG2	*
*ITrd0c0	*	*	*	*	*	*	*	*	*	*	*	*	*	*	*	*	*	*	*	*	*	*	*	*ITrd-1c-2	*	*ITrd4c7	*	*	*	*	*	*	*	*	*
*k[b-]	*	*k[b-]	*	*k[b-]	*	*	*k[b-]	*	*	*k[b-]	*	*	*k[b-]	*	*	*k[b-]	*	*k[b-]	*	*k[b-]	*	*k[b-]	*	*k[f#c#]	*	*k[b-]	*	*k[b-]	*	*k[b-]	*	*k[b-]	*	*k[b-]	*
*B-:	*	*B-:	*	*B-:	*	*	*B-:	*	*	*B-:	*	*	*B-:	*	*	*B-:	*	*B-:	*	*B-:	*	*B-:	*	*B-:	*	*B-:	*	*B-:	*	*B-:	*	*B-:	*	*B-:	*
*M3/4	*	*M3/4	*	*M3/4	*	*	*M3/4	*	*	*M3/4	*	*	*M3/4	*	*	*M3/4	*	*M3/4	*	*M3/4	*	*M3/4	*	*M3/4	*	*M3/4	*	*M3/4	*	*M3/4	*	*M3/4	*	*M3/4	*
=1	=1	=1	=1	=1	=1	=1	=1	=1	=1	=1	=1	=1	=1	=1	=1	=1	=1	=1	=1	=1	=1	=1	=1	=1	=1	=1	=1	=1	=1	=1	=1	=1	=1	=1	=1
*	*	*	*	*	*	*	*	*	*	*	*	*	*	*	*	*	*	*	*	*	*	*	*	*	*	*^	*	*	*	*	*	*	*	*	*
*	*	*	*	*	*	*below	*	*	*below	*	*	*below	*	*	*below	*	*	*	*	*	*	*	*	*	*	*	*	*	*2\right	*	*	*	*	*	*	*
!LO:TX:t=Col VCello.	!LO:DY:rj	!	!LO:DY:rj	!LO:TX:t=P:problem=[nawiasami kwadratowymi] oznaczam miejsca, w których w rpsie tekst jest powtórzony z wyższego głosu za pomocą poziomej kreski	!	!LO:DY:rj	!LO:TX:t=P://git.nifc.pl/transkrypcje/popc2-transkrypcje/issues/310):problem=[nawiasami kwadratowymi] oznaczam miejsca, w których w rpsie tekst jest powtórzony z wyższego głosu za pomocą poziomej kreski (ostateczna odpowiedź będzie w wątku http	!	!LO:DY:rj	!LO:TX:t=P:problem=[nawiasami kwadratowymi] oznaczam miejsca, w których w rpsie tekst jest powtórzony z wyższego głosu za pomocą poziomej kreski	!	!LO:DY:rj	!	!	!LO:DY:rj	!	!LO:DY:rj	!	!LO:DY:rj	!	!LO:DY:rj:t=f.	!LO:TX:a:t=P:problem=wykreślone nuty	!	!	!	!	!	!	!	!	!	!LO:DY:rj:t=f.	!	!LO:DY:rj:t=f.	!	!
4d\|yy	f	4D\|	f	4.D\	Ch[ri-	f	4.A\	Ch[ri-	f	4.d\	Ch[ri-	f	4.f/	Chri-	f	4A' 4F/	f	4d'/	f	4f 4A'/	f	2.rd	.	2.r	.	[2.A/	4.F\	.	(2D\	.	(2d/	f	(2f/	f	2.r	.
4d\|yy	.	4D\|	.	.	.	.	.	.	.	.	.	.	.	.	.	4A' 4D/	.	4d'/	.	4f 4A'/	.	.	.	.	.	.	.	.	.	.	.	.	.	.	.	.
.	.	.	.	8D\	-ste	.	8A\	-ste	.	8d\	-ste	.	8f/	-ste	.	.	.	.	.	.	.	.	.	.	.	.	8r	.	.	.	.	.	.	.	.	.
4d\|yy	.	4D\|	.	8.D\	au-	.	8.A\	au-	.	8.e\	au-	.	8.g/	au-	.	4B-' 4D/	.	4e 4d'/	.	4g 4d/	.	.	.	.	.	.	4r	.	4AA/	.	4e/	.	4g/	.	.	.
.	.	.	.	16D\	-di	.	16A\	-di	.	16e\	-di	.	16g/	-di	.	.	.	.	.	.	.	.	.	.	.	.	.	.	.	.	.	.	.	.	.	.
*	*	*	*	*	*	*	*	*	*	*	*	*	*	*	*	*	*	*	*	*	*	*	*	*	*	*v	*v	*	*	*	*	*	*	*	*	*
=2	=2	=2	=2	=2	=2	=2	=2	=2	=2	=2	=2	=2	=2	=2	=2	=2	=2	=2	=2	=2	=2	=2	=2	=2	=2	=2	=2	=2	=2	=2	=2	=2	=2	=2	=2
*2\right	*	*2\right	*	*2\right	*	*	*2\right	*	*	*2\right	*	*	*2\right	*	*	*	*	*	*	*	*	*	*	*	*	*	*	*	*	*	*	*	*	*	*
2d;\yy	.	2D;\	.	2D;\	nos!	.	2A;\	nos!	.	2f\;	nos!	.	2a;\	nos!	.	2A;/	.	2f; 2A/	.	2a; 2d/	.	4r	.	4r	.	2A;/]	.	2DD;/)	.	2f;/)	.	2a;/)	.	4r;	.
.	.	.	.	.	.	.	.	.	.	.	.	.	.	.	.	.	.	.	.	.	.	4r;	.	4r;	.	.	.	.	.	.	.	.	.	4r	.
4ryy	.	4r	.	4r	.	.	4r	.	.	4r	.	.	4r	.	.	4r	.	4r	.	4r	.	4r	.	4r	.	4r	.	4r	.	4r	.	4r	.	4r	.
!	!	!	!	!	!	!LO:DY:t=ff.	!	!	!LO:DY:t=ff.	!	!	!LO:DY:t=ff.	!	!	!	!	!LO:DY:t=ff.	!	!LO:DY:t=ff.	!	!	!	!	!	!LO:DY:t=ff.	!	!LO:DY:t=ff.	!	!LO:DY:t=ff.	!	!LO:DY:t=ff.	!	!	!	!
.	ff	.	.	.	.	ff	.	.	ff	.	.	ff	.	.	ff	.	ff	.	ff	.	ff	.	ff	.	ff	.	ff	.	ff	.	ff	.	ff	.	.
=3	=3	=3	=3	=3	=3	=3	=3	=3	=3	=3	=3	=3	=3	=3	=3	=3	=3	=3	=3	=3	=3	=3	=3	=3	=3	=3	=3	=3	=3	=3	=3	=3	=3	=3	=3
*	*	*	*	*	*	*	*	*	*	*	*	*	*	*	*	*	*	*	*	*	*	*	*	*^	*	*^	*	*	*	*	*	*	*	*	*
*	*	*	*	*	*	*	*	*	*	*	*	*	*	*	*	*	*	*	*	*	*	*2\right	*	*	*2\right	*	*	*	*	*	*	*	*	*	*	*	*
!	!	!	!LO:DY:rj	!	!	!	!	!	!	!	!	!	!	!	!	!	!	!	!	!	!	!	!	!	!	!	!	!	!	!	!	!	!	!	!	!	!
4d\|yy	.	4D\|	ff	4D\	Chri-	.	4A\	Chri-	.	4f\	Chri-	.	4a\	Chri-	.	4A' 4F/	.	4f' 4A/	.	4a 4d'/	.	2D\	.	(2a/	[2.d\	.	(2f/	4.A\	.	(2D\	.	(>2d/	.	(2a/	.	2.r	.
4d\|yy	.	4D\|	.	8.F\	-ste	.	8.d\	-ste	.	8.f\	-ste	.	8.a\	-ste	.	4A' 4F/	.	4f' 4A/	.	4a 4d'/	.	.	.	.	.	.	.	.	.	.	.	.	.	.	.	.	.
.	.	.	.	.	.	.	.	.	.	.	.	.	.	.	.	.	.	.	.	.	.	.	.	.	.	.	.	8rA	.	.	.	.	.	.	.	.	.
.	.	.	.	16A\	ex-	.	16d\	ex-	.	16f\	ex-	.	16a\	ex-	.	.	.	.	.	.	.	.	.	.	.	.	.	.	.	.	.	.	.	.	.	.	.
4d\|yy	.	4D\|	.	8.G\	-au-	.	8.B-\	-au-	.	8.g\	-au-	.	8.dd\	-au-	.	4B-' 4D/	.	4g' 4B-/	.	4b- 4d 4G'/	.	4D\	.	8.dd/L)	.	.	4g/	4r	.	4G\	.	4B-/	.	8.dd\L	.	.	.
.	.	.	.	16G\	-di,	.	16B-\	-di,	.	16g\	-di,	.	16cc#X\	-di,	.	.	.	.	.	.	.	.	.	16cc#/Jk	.	.	.	.	.	.	.	.	.	16cc#X\Jk)	.	.	.
*	*	*	*	*	*	*	*	*	*	*	*	*	*	*	*	*	*	*	*	*	*	*	*	*	*	*	*v	*v	*	*	*	*	*	*	*	*	*
=4	=4	=4	=4	=4	=4	=4	=4	=4	=4	=4	=4	=4	=4	=4	=4	=4	=4	=4	=4	=4	=4	=4	=4	=4	=4	=4	=4	=4	=4	=4	=4	=4	=4	=4	=4	=4
*	*	*	*	*	*	*	*	*	*	*	*	*	*	*	*	*	*	*	*	*	*	*	*	*	*	*	*	*	*	*	*	*	*2\right	*	*	*
2d;\yy	.	2D;\	.	2D;\	nos!]	.	2A;\	nos!]	.	2f;\	nos].	.	2dd;\	nos!	.	2A 2F 2D;/	.	2f 2A;/	.	2a 2d;/	.	2D;\	.	2dd;/	2d\]	.	2f;/)	.	2D;\)	.	2A;/)	.	2dd;\	.	4r;	.
.	.	.	.	.	.	.	.	.	.	.	.	.	.	.	.	.	.	.	.	.	.	.	.	.	.	.	.	.	.	.	.	.	.	.	4r	.
4ryy	.	4r	.	4r	.	.	4r	.	.	4r	.	.	4r	.	.	4r	.	4r	.	4r	.	4r	.	4r	4r	.	4r	.	4ryy	.	4r	.	4r	.	4r	.
*	*	*	*	*	*	*	*	*	*	*	*	*	*	*	*	*	*	*	*	*	*	*	*	*v	*v	*	*	*	*	*	*	*	*	*	*	*
!!LO:PB:g=original
=5	=5	=5	=5	=5	=5	=5	=5	=5	=5	=5	=5	=5	=5	=5	=5	=5	=5	=5	=5	=5	=5	=5	=5	=5	=5	=5	=5	=5	=5	=5	=5	=5	=5	=5	=5
*	*	*	*	*	*	*	*	*	*	*	*	*	*	*	*	*	*	*	*	*	*	*	*	*	*	*	*	*	*	*^	*	*	*	*	*
!	!	!	!	!	!	!	!	!	!	!	!	!	!LO:TX:a:t=P:problem=dopisane ołówkiem na marginesie "Uniſs?"	!	!	!	!	!	!	!	!LO:DY:rj:t=p.	!	!	!	!	!	!	!	!	!	!	!	!	!	!	!
2.r	.	2.r	.	2.r	.	.	2.r	.	.	4a\	pa-	.	2.r	.	.	2.ryy	.	2.ryy	.	(4a/	p	2.ryy	.	2.ryy	.	2.ryy	.	2.ryy	.	(<4a/	2.re	p	2.ryy	.	2.ryy	.
.	.	.	.	.	.	.	.	.	.	8g\	-ter	.	.	.	.	.	.	.	.	8g/L	.	.	.	.	.	.	.	.	.	8g/L	.	.	.	.	.	.
.	.	.	.	.	.	.	.	.	.	8f\	de	.	.	.	.	.	.	.	.	8f/	.	.	.	.	.	.	.	.	.	8f/	.	.	.	.	.	.
.	.	.	.	.	.	.	.	.	.	8e\	coe-	.	.	.	.	.	.	.	.	8e/	.	.	.	.	.	.	.	.	.	8e/	.	.	.	.	.	.
!	!	!	!	!	!	!	!	!	!	!	!	!	!	!	!	!	!	!	!LO:DY:t=f.	!	!	!	!	!	!	!	!	!	!	!	!	!	!	!	!	!
.	.	.	.	.	.	.	.	.	f	8d\	-lis	.	.	.	f	.	f	.	f	8d/J)	.	.	f	.	.	.	.	.	f	8d/J)	.	.	.	f	.	.
=6	=6	=6	=6	=6	=6	=6	=6	=6	=6	=6	=6	=6	=6	=6	=6	=6	=6	=6	=6	=6	=6	=6	=6	=6	=6	=6	=6	=6	=6	=6	=6	=6	=6	=6	=6	=6
*	*	*	*	*	*	*	*	*	*	*	*	*	*	*	*	*	*	*	*	*	*	*	*	*	*	*	*	*	*	*	*2\right	*	*	*	*	*
!	!	!	!	!	!	!	!	!	!	!	!	!	!	!	!	!	!	!	!	!	!	!	!	!	!	!	!	!	!	!LO:TX:b:t=1.	!	!	!	!	!	!
!	!	!	!	!	!	!	!	!	!LO:HP:a	!	!	!	!	!	!	!	!	!	!	!	!	!	!	!	!	!	!	!	!	!LO:TX:a:t=2.	!	!	!	!	!	!
2.r	.	(4G\	f >	(4G\	De-	.	4d\	De-	>	2g\	De-	f >	2b-\	De-	.	(4G/	>	(4d/	.	(2b-/	f >	(2G\	>	2.ryy	.	2.ryy	.	(2B-\	>	(4d/	(2g\	.	(2b-/	>	2.ryy	.
.	.	4C\	.	4C\)	.	.	4c\	-us!	]	.	.	.	.	.	.	4C/)	.	4e/	.	.	.	.	.	.	.	.	.	.	.	4e/	.	>	.	.	.	.
.	.	8F\)	.	8F\	-us!	.	4r	.	.	8f\	-us!	.	8a\	-us!	.	8F/	]	8f/)	.	8a/)	]	8F\)	]	.	.	.	.	8A\)	]	8f/)	8f\)	]	8a/)	.	.	.
.	.	8r	]	8r	.	.	.	.	.	8r	.	]	8r	.	.	8r	.	8r	.	8ryy	p	8r	.	.	.	.	.	8r	.	8r	8ryy	.	8r	]	.	.
=7	=7	=7	=7	=7	=7	=7	=7	=7	=7	=7	=7	=7	=7	=7	=7	=7	=7	=7	=7	=7	=7	=7	=7	=7	=7	=7	=7	=7	=7	=7	=7	=7	=7	=7	=7	=7
!	!	!	!	!	!	!	!	!	!	!	!	!LO:DY:a	!	!	!	!	!	!	!	!	!	!	!	!	!	!	!	!	!	!	!	!	!	!	!	!
2.r	.	2.r	.	2.r	.	.	2.r	.	.	4a\	fi-	p	2.r	.	.	2.r	.	2.r	.	(4a/	.	2.ryy	.	2.ryy	.	2.ryy	.	2.r	.	(<4a/	2.re	p	2.ryy	.	2.ryy	.
.	.	.	.	.	.	.	.	.	.	8g\	-li	.	.	.	.	.	.	.	.	8g/L	.	.	.	.	.	.	.	.	.	8g/L	.	.	.	.	.	.
.	.	.	.	.	.	.	.	.	.	8f\	re-	.	.	.	.	.	.	.	.	8f/	.	.	.	.	.	.	.	.	.	8f/	.	.	.	.	.	.
.	.	.	.	.	.	.	.	.	.	8e\	-demp-	.	.	.	.	.	.	.	.	8e/	.	.	.	.	.	.	.	.	.	8e/	.	.	.	.	.	.
.	.	.	.	.	.	.	.	.	.	8d\	-tor	.	.	.	.	.	.	.	.	8d/J)	.	.	.	.	.	.	.	.	.	8d/J)	.	.	.	f	.	.
!	!	!	!	!	!	!	!	!	!	!	!	!	!	!	!	!	!	!	!	!	!	!	!LO:DY:t=f.	!	!	!	!	!	!	!	!	!	!	!	!	!
.	.	.	f	.	.	f	.	.	f	.	.	.	.	.	f	.	f	.	f	.	f	.	f	.	.	.	.	.	f	.	.	f	.	.	.	.
=8	=8	=8	=8	=8	=8	=8	=8	=8	=8	=8	=8	=8	=8	=8	=8	=8	=8	=8	=8	=8	=8	=8	=8	=8	=8	=8	=8	=8	=8	=8	=8	=8	=8	=8	=8	=8
!	!	!	!	!	!	!	!	!	!	!	!	!LO:DY:rj	!	!	!	!	!	!	!	!	!	!	!	!	!	!	!	!	!	!	!	!	!	!	!	!
2.r	.	(4G\	>	(4G\	De-	.	4d\	De-	>	2g\	mun-	f >	2b-\	De-	>	(4G/	.	(4c/	>	(2b-/	>	(2G\	>	4r	.	2.ryy	.	(2B-\	>	(4d/	(2g\	.	(2b-/	.	2.ryy	.
.	.	4C\	.	4C\)	.	.	4c\	-us!	]	.	.	.	.	.	.	4C/	.	4e/	.	.	.	.	.	4r	.	.	.	.	.	4e/	.	>	.	.	.	.
!	!	!	!	!	!	!	!	!	!	!	!	!	!	!	!	!	!	!	!	!	!	!	!	!	!LO:DY:rj:t=p.	!	!	!	!	!	!	!	!	!	!	!
.	.	8F\)	]	8F\	-us!	.	4r	.	.	8f\	-di.	.	8a\	-us!	]	8F/)	.	8f/)	]	8a/)	]	8F\)	]	4a/	p	.	.	8A\)	]	8f/)	8f\)	]	8a/)	.	.	.
.	.	8ryy	.	8r	.	.	.	.	.	8r	.	]	8r	.	.	8r	.	8r	.	8r	.	8r	.	.	.	.	p	8r	.	8r	8ryy	.	8r	.	.	.
*	*	*	*	*	*	*	*	*	*	*	*	*	*	*	*	*	*	*	*	*	*	*	*	*	*	*	*	*	*	*v	*v	*	*	*	*	*
=9	=9	=9	=9	=9	=9	=9	=9	=9	=9	=9	=9	=9	=9	=9	=9	=9	=9	=9	=9	=9	=9	=9	=9	=9	=9	=9	=9	=9	=9	=9	=9	=9	=9	=9	=9
!	!LO:DY:rj	!	!LO:DY:rj	!	!	!	!	!	!LO:HP:a	!	!	!	!	!	!	!	!LO:DY:a	!	!	!	!	!	!	!	!	!	!	!	!LO:DY:rj	!	!	!	!	!	!
4AA/	p	4AA/	p	(4AA/	mi-	.	8.c\	mi-	<	(4c\	mi-	.	8.cc\	mi-	.	(4C/	p	2.r	.	2.r	.	2.ryy	.	8.ccX/L	.	[2.c [2.C/	.	(4C\	p	2.ryy	.	2.ryy	.	2.ryy	.
.	<	.	<	.	.	.	16c\	-se-	.	.	.	.	16cc\	-se-	.	.	.	.	.	.	.	.	.	16cc/Jk	.	.	.	.	<	.	.	.	.	.	.
!	!	!	!	!	!	!LO:HP:a	!	!	!	!	!	!LO:HP:a	!	!	!LO:HP:a	!	!LO:HP:a	!	!	!	!	!	!	!	!	!	!	!	!	!	!	!	!	!	!
4BB-/	.	4BB-/	.	4BB-/)	.	<	4.c\	-re-	.	4d\)	.	<	4cc\	-re-	<	4D/	<	.	.	.	.	.	.	[>2cc/	<	.	.	4D\	.	.	.	.	.	.	.
4C/	.	4C/	.	4C/	-se-	.	.	.	.	4e\	-se-	.	4cc\	-re	.	4E/	.	.	.	.	.	.	.	.	.	.	.	4E\	.	.	.	.	.	.	.
.	.	.	.	.	.	.	8B-\	-re	.	.	.	.	.	.	.	.	.	.	.	.	.	.	.	.	.	.	.	.	.	.	.	.	.	.	.
=10	=10	=10	=10	=10	=10	=10	=10	=10	=10	=10	=10	=10	=10	=10	=10	=10	=10	=10	=10	=10	=10	=10	=10	=10	=10	=10	=10	=10	=10	=10	=10	=10	=10	=10	=10
4D\	.	4D\	.	(4D\	-re-	.	8.B-\	mi-	.	(4f\	-re-	.	8.cc\	mi-	.	4F/	.	2.r	.	4r	.	2.ryy	.	8.cc/L]	.	2.c] 2.C/]	.	4F\	.	2.ryy	.	2.ryy	.	2.ryy	.
!	!	!	!	!	!	!	!	!	!	!	!	!	!	!	!	!	!	!	!	!	!	!	!	!LO:TX:t=P:problem=brak ♭	!	!	!	!	!	!	!	!	!	!	!
.	.	.	.	.	.	.	16B-\	-se-	.	.	.	.	16cc\	-se-	.	.	.	.	.	.	.	.	.	16ccX/Jk	.	.	.	.	.	.	.	.	.	.	.
4E\	.	4E\	[	4E\)	.	.	4B-\	-re-	.	4g\)	.	.	4cc\	-re-	[	4G/	.	.	.	4r	.	.	.	4cc/	.	.	.	4G\	.	.	.	.	.	.	.
4F\	[	4F\	.	4F\	-re	[	4A\	-re	[	4a\	-re	[	4cc\	-re!	.	4A/)	[	.	.	4a/	.	.	.	4cc/	[	.	.	4A\)	[	.	.	.	.	.	.
!!LO:PB:g=original
=11	=11	=11	=11	=11	=11	=11	=11	=11	=11	=11	=11	=11	=11	=11	=11	=11	=11	=11	=11	=11	=11	=11	=11	=11	=11	=11	=11	=11	=11	=11	=11	=11	=11	=11	=11
*	*	*	*	*	*	*	*	*	*	*	*	*	*	*	*	*	*	*	*	*	*	*	*	*^	*	*	*	*	*	*	*	*	*	*	*
!	!	!	!	!	!	!LO:DY:rj	!	!	!LO:DY:rj	!	!	!	!	!	!	!	!LO:DY:rj	!	!LO:DY:rj	!	!	!	!	!	!	!	!	!	!	!	!	!	!	!	!	!
[4.F#X\	sf >	[4.F#X\	sf >	4.F#X\	.	sf >	4.A\	.	sf >	4.a\	[mi-	sf >	4.cc\	mi-	sf >	(4.A/	sf >	(4.a/	sf >	(4.cc\	sf >	2.r	.	8ccX/	2.rg	sf	8c 8C/	sf sf	(4.F#X\	sf	(4.cc 4.a/	sf sf >	2.r	.	2.r	.
.	.	.	.	.	.	.	.	.	.	.	.	.	.	.	.	.	.	.	.	.	.	.	.	8r	.	.	8r	.	.	>	.	.	.	.	.	.
.	.	.	.	.	.	.	.	.	.	.	.	.	.	.	.	.	.	.	.	.	.	.	.	4rcc	.	.	4r	.	.	.	.	.	.	.	.	.
8F#\L]	]	8F#\L]	]	8G\	.	]	8B-\	.	]	8g\	-se-	]	8b-\	-se-	]	8B-/L)	]	8g/L)	]	8b-\L)	]	.	.	.	.	.	.	.	8G\L)	]	8b-L 8g/)	]	.	.	.	.
8A\|	.	8A\|	.	8A\	.	.	8c\	.	.	8f\	-re-	.	8a\	-re-	.	8c/|	.	8f/|	.	8a\|	.	.	.	4rcc	.	.	4r	.	8A'\	.	8a' 8f/	.	.	.	.	.
8B-\J|	.	8B-\J|	.	8B-\	.	.	8d\	.	.	8e\	-re	.	8g\	-re	.	8d/J|	.	8e/J|	.	8g\J|	.	.	.	.	.	.	.	.	8B-'\J	.	8gJ' 8e/	.	.	.	.	.
*	*	*	*	*	*	*	*	*	*	*	*	*	*	*	*	*	*	*	*	*	*	*	*	*v	*v	*	*	*	*	*	*	*	*	*	*	*
=12	=12	=12	=12	=12	=12	=12	=12	=12	=12	=12	=12	=12	=12	=12	=12	=12	=12	=12	=12	=12	=12	=12	=12	=12	=12	=12	=12	=12	=12	=12	=12	=12	=12	=12	=12
8G#X\	.	8G#X\	.	8G#X\	.	.	8d\	.	.	8d\	no-	.	8f/	no-	.	8d/	.	8d/	.	8f/	.	2.r	.	2.r	.	2.r	.	8G#X\	.	8f 8d/	.	2.r	.	2.r	.
8r	.	8r	.	8r	.	.	8r	.	.	8r	.	.	8r	.	.	8r	.	8r	.	8r	.	.	.	.	.	.	.	8r	.	8r	.	.	.	.	.
8A\	.	8A\	.	8A\	.	.	8A\	.	.	8c#X\	-bis!	.	8e/	-bis!	.	8A/	.	8c#X/	.	8e/	.	.	.	.	.	.	.	8A\	.	8e 8c#X/	.	.	.	.	.
8r	.	8r	.	8r	.	.	8r	.	.	8r	.	.	8r	.	.	8r	.	8r	.	8r	.	.	.	.	.	.	.	8r	.	8r	.	.	.	.	.
!	!	!	!	!	!	!	!	!	!	!	!	!	!	!	!	!	!	!	!	!	!	!	!	!	!	!	!LO:DY:t=f.	!	!	!	!	!	!	!	!
4r	f	4r	f	4r	.	f	4r	.	f	4r	.	f	4r	.	f	4r	f	4r	f	4r	f	.	.	.	.	.	f	4r	f	4r	.	.	f	.	f
=13	=13	=13	=13	=13	=13	=13	=13	=13	=13	=13	=13	=13	=13	=13	=13	=13	=13	=13	=13	=13	=13	=13	=13	=13	=13	=13	=13	=13	=13	=13	=13	=13	=13	=13	=13
*	*	*	*	*	*	*	*	*	*	*	*	*	*	*	*	*	*	*	*	*	*	*	*	*	*	*^	*	*	*	*^	*	*	*	*^	*
4AA/|	.	4AA/|	.	8.E\	.	.	8.E/	.	.	8.e\	Spi-	.	8.e/	Spi-	.	4E/|	.	4e 4c/|	.	4e 4A/|	.	2.r	.	2.r	.	4A/	4A\	.	(4C\	.	4c/	4c\	.	4e/	.	(4ee/	4ee\	.
.	.	.	.	16E\	.	.	16E/	.	.	16e\	-ri-	.	16e/	-ri-	.	.	.	.	.	.	.	.	.	.	.	.	.	.	.	.	.	.	.	.	.	.	.	.
4AA/|	.	4AA/|	.	4E\	.	.	4E/	.	.	4e\	-tus	.	4e/	-tus	.	4A 4E/|	.	4e 4c/|	.	4a 4e 4A/|	.	.	.	.	.	4c/	4A\	.	4E\	.	4e/	4e\	.	4a/	.	4aa/	4aa\	.
4AA/|	.	4AA/|	.	8.A\	.	.	8.A\	.	.	8.a\	San-	.	8.a\	San-	.	4A 4F/|	.	4f 4A/|	.	4a 4d/|	.	.	.	.	.	4A/	4A\	.	4F\)	.	4f/	4d\	.	4bn/	.	4bbn/)	4bbn\	.
!	!	!	!	!	!	!	!	!	!	!	!LO:MO:mod=cte	!	!	!LO:MO:mod=cte	!	!	!	!	!	!	!	!	!	!	!	!	!	!	!	!	!	!	!	!	!	!	!	!
.	.	.	.	16A\	.	.	16A\	.	.	16a\	-ctus	.	16a\	-ctus	.	.	.	.	.	.	.	.	.	.	.	.	.	.	.	.	.	.	.	.	.	.	.	.
*	*	*	*	*	*	*	*	*	*	*	*	*	*	*	*	*	*	*	*	*	*	*	*	*	*	*v	*v	*	*	*	*	*	*	*	*	*	*	*
=14	=14	=14	=14	=14	=14	=14	=14	=14	=14	=14	=14	=14	=14	=14	=14	=14	=14	=14	=14	=14	=14	=14	=14	=14	=14	=14	=14	=14	=14	=14	=14	=14	=14	=14	=14	=14	=14
*	*	*	*	*	*	*	*	*	*	*	*	*	*	*	*	*	*	*	*	*2\right	*	*	*	*	*	*	*	*	*	*	*	*	*	*	*	*2\right	*
!	!	!	!	!	!	!	!	!	!	!	!	!	!	!	!	!	!	!	!	!LO:TX:a:t=P:problem=skreślony akord	!	!	!	!	!	!	!	!	!	!	!	!	!	!	!	!	!
2AA;/	.	2AA;/	.	2A;\	.	.	2A;\	.	.	2e;\	De-	.	2cc;\	De-	.	2A 2E;/	.	2e 2c;/	.	2cc 2e;\	.	4r	.	4r	.	2c 2A;/	.	2E;\	.	2a;/	2e\	.	2cc;\	.	2ccc;/	2ccc\	.
.	.	.	.	.	.	.	.	.	.	.	.	.	.	.	.	.	.	.	.	.	.	4r;	.	4r;	.	.	.	.	.	.	.	.	.	.	.	.	.
!	!	!	!	!	!	!	!	!	!	!	!	!	!	!	!	!	!	!	!	!	!	!	!	!	!LO:DY:t=ff.	!	!	!	!	!	!	!	!	!	!	!	!
4r	.	4r	.	4A\	.	.	4A\	.	.	4e\	-us!	.	4cc\	-us!	.	4r	ff	4r	ff	4r	ff	4r	ff	4r	ff	4r	ff	4r	ff	4r	4ryy	.	4r	.	4r	4ryy	.
!	!	!	!	!	!	!	!	!	!LO:DY:t=ff.	!	!	!	!	!	!LO:DY:t=ff.	!	!	!	!	!	!	!	!	!	!	!	!	!	!	!	!	!	!	!	!	!	!
.	ff	.	.	.	.	ff	.	.	ff	.	.	ff	.	.	ff	.	.	.	.	.	.	.	.	.	.	.	.	.	.	.	.	.	.	.	.	.	.
=15	=15	=15	=15	=15	=15	=15	=15	=15	=15	=15	=15	=15	=15	=15	=15	=15	=15	=15	=15	=15	=15	=15	=15	=15	=15	=15	=15	=15	=15	=15	=15	=15	=15	=15	=15	=15	=15
*	*	*	*	*	*	*	*	*	*	*	*	*	*	*	*	*	*	*	*	*	*	*	*	*^	*	*^	*	*	*	*	*	*	*	*	*	*	*
!	!	!	!LO:DY:rj:t=ff.	!	!	!	!	!	!	!	!	!	!	!	!	!	!	!	!	!	!	!	!	!	!	!	!	!	!	!	!	!	!	!LO:DY:rj:t=ff.	!	!	!	!	!
4A\|	.	4A\|	ff	8.A\	.	.	8.A\	.	.	8.f\	San-	.	8.cc\	San-	.	4f' 4A\	.	4cc 4f 4A/|>	.	4cc 4f 4A/|>	.	(4A\	.	(<4a/	2.rf	.	4f/	2.rf	.	(4A\	.	(2ff/	(>4a\	ff	(4cc\	ff	(4ccc/	4aa\	ff
.	.	.	.	16A\	.	.	16A\	.	.	16f\	-cta	.	16cc\	-cta	.	.	.	.	.	.	.	.	.	.	.	.	.	.	.	.	.	.	.	.	.	.	.	.	.
4G\|	.	4G\|	.	4G\	.	.	4B-\	.	.	4f\	Tri-	.	4dd\	Tri-	.	4b- 4d 4G\	.	4dd 4f 4B-/|>	.	4dd 4f 4B-/|>	.	4G\)	.	4dd/)	.	.	4f/	.	.	2B-\	.	.	2b-\	.	4dd\	.	4ddd/	2gg\	.
4C\|	.	4C\|	.	4C\	.	.	4B-\	.	.	4g\	-ni-	.	4ee\	-ni-	.	4g 4A 4C/	.	4b- 4g/|>	.	4ee 4g/|>	.	4C/	.	4ccX/	.	.	4g/	.	.	.	.	4ee/	.	.	4ee\)	.	4eee/)	.	.
*	*	*	*	*	*	*	*	*	*	*	*	*	*	*	*	*	*	*	*	*	*	*	*	*v	*v	*	*	*	*	*	*	*	*	*	*	*	*v	*v	*
*	*	*	*	*	*	*	*	*	*	*	*	*	*	*	*	*	*	*	*	*	*	*	*	*	*	*v	*v	*	*	*	*	*	*	*	*	*	*
=16	=16	=16	=16	=16	=16	=16	=16	=16	=16	=16	=16	=16	=16	=16	=16	=16	=16	=16	=16	=16	=16	=16	=16	=16	=16	=16	=16	=16	=16	=16	=16	=16	=16	=16	=16	=16
2F;\	.	2C 2FF;/	.	2F;\	.	.	2A;\	.	.	2f;\	-tas!]	.	2ff;\	-tas!	.	2A 2F;/	.	2a 2c;/	.	2ff 2a;\	.	2FF;/	.	2a 2A;/	.	2f 2C;/	.	2F;\)	.	2ff;/)	2a\)	.	2ff;\	.	2fff 2aa;\	.
4r	.	4r	.	4r	.	.	4r	.	.	4r	.	.	4r	.	.	4r	.	4r	.	4r	.	4r	.	4r	.	4r	.	4r	.	4r	4r	.	4r	.	4r	.
*	*	*	*	*	*	*	*	*	*	*	*	*	*	*	*	*	*	*	*	*	*	*	*	*	*	*	*	*	*	*v	*v	*	*	*	*	*
!!LO:PB:g=original
=17	=17	=17	=17	=17	=17	=17	=17	=17	=17	=17	=17	=17	=17	=17	=17	=17	=17	=17	=17	=17	=17	=17	=17	=17	=17	=17	=17	=17	=17	=17	=17	=17	=17	=17	=17
2.r	.	2.r	.	2.r	.	.	(4c\	u-	p	2.r	.	.	2.r	.	.	(4c/	p	2.r	.	2.r	.	2.r	.	2.r	.	2.r	.	(4c\	p	2.r	.	2.r	.	2.r	.
.	.	.	.	.	.	.	8B-X\L	.	.	.	.	.	.	.	.	8B-/L	.	.	.	.	.	.	.	.	.	.	.	8B-\L)	.	.	.	.	.	.	.
.	.	.	.	.	.	.	8A\J)	.	.	.	.	.	.	.	.	8A/	.	.	.	.	.	.	.	.	.	.	.	8A\	.	.	.	.	.	.	.
.	.	.	.	.	.	.	8G/L	-nus	.	.	.	.	.	.	.	8G/)	.	.	.	.	.	.	.	.	.	.	.	8G\	.	.	.	.	.	.	.
.	.	.	.	.	.	.	8F/J	.	.	.	.	.	.	.	.	8F/J	.	.	.	.	f	.	f	.	f	.	f	8F\J	.	.	.	.	.	.	.
=18	=18	=18	=18	=18	=18	=18	=18	=18	=18	=18	=18	=18	=18	=18	=18	=18	=18	=18	=18	=18	=18	=18	=18	=18	=18	=18	=18	=18	=18	=18	=18	=18	=18	=18	=18
*	*	*	*	*	*	*	*	*	*	*	*	*	*	*	*	*	*	*	*	*	*	*	*	*^	*	*	*	*	*	*	*	*	*	*	*
*	*	*	*	*	*	*	*	*	*	*	*	*	*	*	*	*	*	*2\right	*	*	*	*	*	*	*	*	*	*	*	*	*	*	*	*	*	*
!	!	!	!	!	!	!LO:DY:rj	!	!	!LO:DY:rj	!	!	!LO:DY:rj	!	!	!LO:DY:rj	!	!LO:DY:rj	!	!LO:DY:rj	!	!	!	!	!	!	!	!	!	!	!LO:DY:rj	!	!LO:DY:rj	!	!LO:DY:rj	!	!
8.BB-/L	f	8.BB-/L	f	2F\	De-	f	2B-\	De-	f	2f\	De-	f	2dd\	De-	f	8.B-/L	f >	(2b-\	f	(2dd 2f\	.	(2B-\	.	(<2dd/	2.rf	.	[2f [2F/	.	(2d\	f	(2dd (2b-\	f	(2dd\	f	2.r	.
16D/Jk	.	16D/Jk	.	.	.	>	.	.	>	.	.	>	.	.	>	16d/Jk	.	.	>	.	>	.	>	.	.	.	.	.	.	.	.	>	.	>	.	.
8F\	.	8F/	.	.	.	.	.	.	.	.	.	.	.	.	.	8f\	.	.	.	.	.	.	.	.	.	.	.	.	.	.	.	.	.	.	.	.
8r	.	8r	.	.	.	.	.	.	.	.	.	.	.	.	.	8r	]	.	.	.	.	.	.	.	.	.	.	.	.	.	.	.	.	.	.	.
8F\	.	8FF/	.	8F\	-us!	]	8A\	-us!	]	8f\	-us!	]	8cc\	-us!	]	8F/	.	8a\)	]	8cc\)	]	8F\)	]	8ccX/)	.	.	8f] 8F/]	.	8c\)	.	8cc) 8a\)	]	8cc\)	]	.	.
8r	.	8r	.	8r	.	.	8r	.	.	8r	.	.	8r	.	.	8r	.	8r	.	8r	.	8r	.	8r	.	.	8r	.	8r	.	8r	.	8r	.	.	.
*	*	*	*	*	*	*	*	*	*	*	*	*	*	*	*	*	*	*	*	*	*	*	*	*v	*v	*	*	*	*	*	*	*	*	*	*	*
=19	=19	=19	=19	=19	=19	=19	=19	=19	=19	=19	=19	=19	=19	=19	=19	=19	=19	=19	=19	=19	=19	=19	=19	=19	=19	=19	=19	=19	=19	=19	=19	=19	=19	=19	=19
!	!	!	!	!	!	!	!	!	!LO:DY:rj	!	!	!	!	!	!	!	!	!	!	!	!	!	!	!	!	!	!	!	!	!	!	!	!	!	!
2.r	.	2.r	.	2.r	.	.	(4c\	u-	p	2.r	.	.	2.r	.	.	2.r	.	2.r	.	2.r	.	2.r	.	2.r	.	2.r	.	(4c\	p	2.r	.	2.r	.	2.r	.
.	.	.	.	.	.	.	8B-\L	.	.	.	.	.	.	.	.	.	.	.	.	.	.	.	.	.	.	.	.	8B-\L	.	.	.	.	.	.	.
.	.	.	.	.	.	.	8A\J)	.	.	.	.	.	.	.	.	.	.	.	.	.	.	.	.	.	.	.	.	8A\	.	.	.	.	.	.	.
.	.	.	.	.	.	.	8G/L	-nus	.	.	.	.	.	.	.	.	.	.	.	.	.	.	.	.	.	.	.	8G\)	.	.	.	.	.	.	.
.	.	.	.	.	.	.	8F/J	.	.	.	.	.	.	.	.	.	f	.	f	.	f	.	f	.	f	.	f	8F\J	.	.	f	.	.	.	.
=20	=20	=20	=20	=20	=20	=20	=20	=20	=20	=20	=20	=20	=20	=20	=20	=20	=20	=20	=20	=20	=20	=20	=20	=20	=20	=20	=20	=20	=20	=20	=20	=20	=20	=20	=20
*	*	*	*	*	*	*	*	*	*	*	*	*	*	*	*	*	*	*	*	*	*	*	*	*^	*	*	*	*	*	*	*	*	*	*	*
!	!	!	!	!	!	!LO:DY:rj	!	!	!LO:DY:rj	!	!	!LO:DY:rj	!	!	!LO:DY:rj	!	!	!	!	!	!	!	!	!	!	!	!	!	!	!LO:DY:rj	!	!	!	!LO:DY:rj	!	!
8.BB-/L	f	8.BB-/L	f	2F\	De-	f	2B-\	De-	f	2f\	[De-	f	(2dd\	De-	f	8.B-/L	.	(2b-\	.	(2dd 2f\	>	(2B-\	>	(<2dd/	2.rf	>	[2f [2F/	>	(2d\	f	(2dd (2b-\	.	(2dd\	f >	2.r	.
16D/Jk	.	16D/Jk	.	.	.	>	.	.	>	.	.	>	.	.	>	16d/Jk	.	.	>	.	.	.	.	.	.	.	.	.	.	>	.	>	.	.	.	.
8F\	.	8F\	.	.	.	.	.	.	.	.	.	.	.	.	.	8f\	.	.	.	.	.	.	.	.	.	.	.	.	.	.	.	.	.	.	.	.
8r	.	8r	.	.	.	.	.	.	.	.	.	.	.	.	.	8r	.	.	.	.	.	.	.	.	.	.	.	.	.	.	.	.	.	.	.	.
8F\	.	8FF/	.	8F\	-us!	]	8A\	-us!	]	8f\	-us!	]	8cc\)	-us!	]	8F/	.	8a\)	]	8cc\)	]	8F\)	]	8ccX/)	.	]	8f] 8F/]	]	8c\)	]	8cc 8a\))	]	8cc\)	]	.	.
8r	.	8r	.	8r	.	.	8r	.	.	8r	.	.	8r	.	.	8r	.	8r	.	8r	.	8r	.	8r	.	.	8r	.	8r	.	8r	.	8r	.	.	.
*	*	*	*	*	*	*	*	*	*	*	*	*	*	*	*	*	*	*	*	*	*	*	*	*v	*v	*	*	*	*	*	*	*	*	*	*	*
=21	=21	=21	=21	=21	=21	=21	=21	=21	=21	=21	=21	=21	=21	=21	=21	=21	=21	=21	=21	=21	=21	=21	=21	=21	=21	=21	=21	=21	=21	=21	=21	=21	=21	=21	=21
*	*	*	*	*	*	*	*	*	*	*	*	*	*	*	*	*	*	*	*	*	*	*	*	*	*	*	*	*	*	*^	*	*	*	*	*
!	!	!	!LO:DY:rj	!	!	!LO:DY:rj	!	!	!LO:DY:rj	!	!	!LO:DY:rj	!	!	!LO:DY:rj	!	!	!	!	!	!	!LO:TX:a:i:t=ligatissim.	!	!	!	!	!	!	!	!	!	!	!	!	!	!
2.r	.	(4GG/	p	(4GG/	mi-	p	(4E-X/	mi-	p	8.e-X\	mi-	p	8.ee-X\	mi-	p	(4G/	p	2.r	.	2.r	.	(4GG/	p	2.r	.	[>2.e-X/	p	(4B-X\	.	(4e-X/	2.r	p	[2.ee-X\	p	2.r	.
!	!	!	!	!	!	!LO:HP:a	!	!	!	!	!	!	!	!	!	!	!	!	!	!	!	!	!	!	!	!	!	!	!	!	!	!	!	!	!	!
.	.	.	.	.	.	<	.	.	.	16e-\	-se-	.	16ee-\	-se-	<	.	.	.	.	.	.	.	.	.	.	.	.	.	.	.	.	.	.	.	.	.
!	!	!	!	!	!	!	!	!	!	!	!	!	!	!	!	!LO:TX:b:t=cres-cen-do.:problem=dynamics with extention lines	!LO:HP:t=cres-cen-do.:ext2=ct	!	!	!	!	!	!	!	!	!LO:TX:b:t=cres-cendo.:problem=dynamics with extention lines	!LO:HP:t=cres-cendo.:ext2=ct	!	!	!	!	!	!LO:TX:b:t=cres-:problem=dynamics with extention lines	!LO:HP:t=cres-cendo.:ext2=ct	!	!
.	.	4AA-X/	.	4AA-X/)	.	.	4F/)	.	.	4e-\	-re-	.	4ee-\	-re-	.	4A-X/	<	.	.	.	.	4AA-X/	.	.	.	.	<	2c\	.	4f/	.	.	.	<	.	.
!	!	!LO:TX:b:t=cres-cendo:problem=dynamics with extention lines	!LO:HP:t=cres-cendo:ext2=ct	!	!	!	!	!	!	!	!	!	!	!	!	!	!	!	!	!	!	!	!	!	!	!	!	!	!	!	!	!	!	!	!	!
.	.	.	<	.	.	.	.	.	.	.	.	.	.	.	.	.	.	.	.	.	.	.	.	.	.	.	.	.	.	.	.	.	.	.	.	.
.	.	4AAn/	.	4AAn/	-[se	.	4F#X/	-se	.	4e-\	-re	.	4ee-\	-re	.	4An/	.	.	.	.	.	4AAn/	.	.	.	.	.	.	.	4f#X/	.	.	.	.	.	.
!!LO:PB:g=original
=22	=22	=22	=22	=22	=22	=22	=22	=22	=22	=22	=22	=22	=22	=22	=22	=22	=22	=22	=22	=22	=22	=22	=22	=22	=22	=22	=22	=22	=22	=22	=22	=22	=22	=22	=22	=22
2.r	.	4BB-X/	.	(4BB-X/	re-	.	(4G/	re-	.	8.e-X\	mi-	.	8.ee-X\	mi-	.	4B-X/	.	2.r	.	2.r	.	4BB-X/	.	2.r	.	2e-X/]	.	4d-X\	.	4g/	2.r	.	2.ee-\]	.	2.r	.
.	.	.	.	.	.	.	.	.	.	16e-\	-se-	.	16ee-\	-se-	.	.	.	.	.	.	.	.	.	.	.	.	.	.	.	.	.	.	.	.	.	.
!	!	!	!	!	!	!	!	!	!	!LO:TX:a:t=P:problem=pokreślone nuty	!	!	!	!	!	!	!	!	!	!	!	!	!	!	!	!	!	!	!	!	!	!	!	!	!	!
.	.	4C/	[	4C/)	.	.	4A-X/)	.	.	4e-\	-re-	.	4ee-\	-re-	.	4c\	.	.	.	.	.	4C/	.	.	.	.	.	4c\	.	4a-X/	.	.	.	[	.	.
.	.	4C#X/)	.	4C#X/	-re	[	4B-X/	-re	.	4g\	-re.	.	4ee-\	-re	[[	4c#X\)	[	.	.	.	.	4C#X/)	.	.	f	4g/	[	4B-X\)	.	4b-X/)	.	.	.	.	.	.
!	!	!	!	!	!	!	!	!	!	!	!	!	!	!	!	!	!	!	!	!	!LO:DY:t=fp.	!	!	!	!	!	!	!	!	!	!	!	!	!	!	!
.	.	.	.	.	.	.	.	.	.	.	.	.	.	.	.	.	.	.	.	.	fp	.	f	.	.	.	.	.	.	.	.	.	.	.	.	.
*	*	*	*	*	*	*	*	*	*	*	*	*	*	*	*	*	*	*	*	*	*	*	*	*	*	*	*	*	*	*v	*v	*	*	*	*	*
=23	=23	=23	=23	=23	=23	=23	=23	=23	=23	=23	=23	=23	=23	=23	=23	=23	=23	=23	=23	=23	=23	=23	=23	=23	=23	=23	=23	=23	=23	=23	=23	=23	=23	=23	=23
*	*	*	*	*	*	*	*	*	*	*	*	*	*	*	*	*	*	*	*	*	*	*	*	*^	*	*^	*	*	*	*	*	*	*	*	*
!	!	!	!LO:DY:rj	!	!	!LO:DY:rj:t=fp.	!	!	!LO:DY:rj:t=fp.	!	!	!LO:DY:rj:t=fp.	!	!	!LO:DY:rj:t=fp.	!	!	!	!LO:DY:rj	!LO:S:s=1:note:problem=note-level slur	!	!	!	!	!	!	!	!	!	!	!	!	!LO:DY:t=fp.	!	!	!	!LO:DY:t=fp.
2D\	fp	8.D\L	fp	4.D\	mi-	fp	4.Bn^\	mi-	fp	4.g^\	mi-	fp	4.dd^\	mi-	fp	(4.d\	.	(>4.bn 4.g/	fp	(4.dd 4.d/	.	4.D\	>	8.ddL 8.d/	8.d\L	.	4.g/	2.rf	fp	(4.Bn\	.	(>4.bn 4.g/	fp	(4.dd\	fp	(4.ddd (4.bbn\	fp
.	.	16D\Jk	.	.	.	.	.	.	.	.	.	.	.	.	.	.	.	.	.	.	.	.	.	16d/Jk	16d\Jk	.	.	.	.	.	.	.	.	.	.	.	.
.	.	4D\|	.	.	.	.	.	.	.	.	.	.	.	.	.	.	.	.	.	.	.	.	]	8d/	8d\	.	.	.	.	.	.	.	.	.	.	.	.
.	.	.	.	8D\	-se-	.	8c\	-se-	.	8g\	-se-	.	8cc\	-se-	.	8en\L)	.	8g/L)	.	8cc/L)	.	8r	.	8r	8ryy	.	8g/L	.	.	8en\L	.	8ccL 8g/)	.	8cc\L)	.	8cccL 8aa\))	.
4D\|	.	4D\|	p	8D\	-re-	.	8d\	-re-	.	8g\	-re-	.	8bn\	-re-	.	8d\|	.	8g/|	.	8bn/	.	4r	.	4r	4ryy	.	8g/|<	.	.	8d\)|	.	8b 8g/|	.	8bn\|	.	8bbn| 8gg\	.
.	.	.	.	8D\	-re	.	8d\	-re	.	8f#X\	-re.	.	8a\	-re	.	8c\J|	.	8f#X/J|	.	8a/J	.	.	.	.	.	.	8a/J|<	.	.	8c\J|	.	8aJ 8f#X/|	.	8a\J|	.	8aaJ| 8ff#X\	.
*	*	*	*	*	*	*	*	*	*	*	*	*	*	*	*	*	*	*	*	*	*	*	*	*v	*v	*	*	*	*	*	*	*	*	*	*	*	*
=24	=24	=24	=24	=24	=24	=24	=24	=24	=24	=24	=24	=24	=24	=24	=24	=24	=24	=24	=24	=24	=24	=24	=24	=24	=24	=24	=24	=24	=24	=24	=24	=24	=24	=24	=24	=24
8D\|	.	8D\	.	8D\	no-	.	8d\	no-	.	8f#X\	no-	.	8cc\	no-	.	8A/	.	8f#X/	.	8cc/	.	2.r	.	2.r	.	8a/	2.rf	.	8c\	.	8cc 8a/	.	8cc\	.	8ccc 8aa\	.
8r	.	8r	.	8r	.	.	8r	.	.	8r	.	.	8r	.	.	8r	.	8r	.	8r	.	.	.	.	.	8r	.	.	8r	.	8r	.	8r	.	8r	.
!	!	!	!	!	!	!	!	!	!	!	!	!	!	!	!	!LO:TX:a:t=P:problem=skreślony dźwięk 8d	!	!	!	!	!	!	!	!	!	!	!	!	!	!	!	!	!	!	!	!
8GG/|	.	8GG/	.	8GG/	-bis!]	.	8d\	-bis!	.	8g\	-bis]	.	8bn\	-bis	.	8G/	.	8g/	.	8bn/	.	.	.	.	.	8g/	.	.	8Bn\	.	8bn 8g/	.	8bn\	.	8bbn 8gg\	.
8r	.	8r	.	8r	.	.	8r	.	.	8r	.	.	8r	.	.	8r	.	8r	.	8r	.	.	.	.	.	8r	.	.	8r	.	8r	.	8r	.	8r	.
!	!	!	!	!	!	!	!	!	!	!	!	!	!	!	!	!	!	!	!	!	!LO:DY:t=ff.	!	!	!	!	!	!	!	!	!	!	!	!	!	!	!
4r	.	4r	.	4r	.	.	4r	.	ff	4r	.	.	4r	.	.	4r	ff	4r	ff	4r	ff	.	ff	.	.	4r	.	.	4r	.	4r	.	4r	.	4r	.
=25	=25	=25	=25	=25	=25	=25	=25	=25	=25	=25	=25	=25	=25	=25	=25	=25	=25	=25	=25	=25	=25	=25	=25	=25	=25	=25	=25	=25	=25	=25	=25	=25	=25	=25	=25	=25
*	*	*	*	*	*	*	*	*	*	*	*	*	*	*	*	*	*	*	*	*	*	*	*	*	*	*	*	*	*	*	*^	*	*	*	*^	*
*	*	*	*	*	*	*	*	*	*	*	*	*	*	*	*	*tremolo	*	*tremolo	*	*tremolo	*	*	*	*	*	*	*	*	*	*	*	*	*	*	*	*	*	*
*	*	*	*	*	*	*	*	*	*	*	*	*	*	*	*	*2\right	*	*	*	*	*	*	*	*	*	*	*	*	*	*	*	*	*	*	*	*	*	*
!	!LO:DY:rj	!	!	!	!	!LO:DY:rj	!	!	!	!	!	!LO:DY:rj	!	!	!LO:DY:rj	!	!	!	!	!	!	!	!	!	!LO:DY:rj	!	!	!LO:DY:rj	!	!LO:DY:rj	!	!	!LO:DY:rj	!	!LO:DY:rj	!	!	!
4GG/	ff	4GG/	ff	(4G\	mi-	ff	(4Bn\	mi-	.	[2.g\	San-	ff	[2.gg\	San-	ff	32g 32G\LLL	.	32bn\LLL	.	32gg\LLL	.	(4GG/	.	4dd/	ff	[2.g/	2.rf	ff	(4Bn\	ff	[2.gg/	(4bn\	ff	(4bn\	ff	[2.ggg/	(4bbn\	ff
.	.	.	.	.	.	.	.	.	.	.	.	.	.	.	.	32g 32G\	.	32bn\	.	32gg\	.	.	.	.	.	.	.	.	.	.	.	.	.	.	.	.	.	.
.	.	.	.	.	.	.	.	.	.	.	.	.	.	.	.	32g 32G\	.	32bn\	.	32gg\	.	.	.	.	.	.	.	.	.	.	.	.	.	.	.	.	.	.
.	.	.	.	.	.	.	.	.	.	.	.	.	.	.	.	32g 32G\	.	32bn\	.	32gg\	.	.	.	.	.	.	.	.	.	.	.	.	.	.	.	.	.	.
.	.	.	.	.	.	.	.	.	.	.	.	.	.	.	.	32g 32G\	.	32bn\	.	32gg\	.	.	.	.	.	.	.	.	.	.	.	.	.	.	.	.	.	.
.	.	.	.	.	.	.	.	.	.	.	.	.	.	.	.	32g 32G\	.	32bn\	.	32gg\	.	.	.	.	.	.	.	.	.	.	.	.	.	.	.	.	.	.
.	.	.	.	.	.	.	.	.	.	.	.	.	.	.	.	32g 32G\	.	32bn\	.	32gg\	.	.	.	.	.	.	.	.	.	.	.	.	.	.	.	.	.	.
.	.	.	.	.	.	.	.	.	.	.	.	.	.	.	.	32g 32G\	.	32bn\JJJ	.	32gg\	.	.	.	.	.	.	.	.	.	.	.	.	.	.	.	.	.	.
4AA/	.	4AA/	.	4A\)	.	.	4c\)	.	.	.	.	.	.	.	.	32g 32G\	.	32cc\LLL	.	32gg\	.	4AA/	.	4ccX/	.	.	.	.	4c\	.	.	4cc\	.	4cc\	.	.	4ccc\	.
.	.	.	.	.	.	.	.	.	.	.	.	.	.	.	.	32g 32G\	.	32cc\	.	32gg\	.	.	.	.	.	.	.	.	.	.	.	.	.	.	.	.	.	.
.	.	.	.	.	.	.	.	.	.	.	.	.	.	.	.	32g 32G\	.	32cc\	.	32gg\	.	.	.	.	.	.	.	.	.	.	.	.	.	.	.	.	.	.
.	.	.	.	.	.	.	.	.	.	.	.	.	.	.	.	32g 32G\	.	32cc\	.	32gg\	.	.	.	.	.	.	.	.	.	.	.	.	.	.	.	.	.	.
.	.	.	.	.	.	.	.	.	.	.	.	.	.	.	.	32g 32G\	.	32cc\	.	32gg\	.	.	.	.	.	.	.	.	.	.	.	.	.	.	.	.	.	.
.	.	.	.	.	.	.	.	.	.	.	.	.	.	.	.	32g 32G\	.	32cc\	.	32gg\	.	.	.	.	.	.	.	.	.	.	.	.	.	.	.	.	.	.
.	.	.	.	.	.	.	.	.	.	.	.	.	.	.	.	32g 32G\	.	32cc\	.	32gg\	.	.	.	.	.	.	.	.	.	.	.	.	.	.	.	.	.	.
.	.	.	.	.	.	.	.	.	.	.	.	.	.	.	.	32g 32G\	.	32cc\JJJ	.	32gg\	.	.	.	.	.	.	.	.	.	.	.	.	.	.	.	.	.	.
4BBn/	.	4BBn/	.	4Bn\	-[se-	.	4d\	-se-	.	.	.	.	.	.	.	32g 32G\	.	32dd\LLL	.	32gg\	.	4BBn/	.	4dd/	.	.	.	.	4d\	.	.	4dd\	.	4dd\	.	.	4ddd\	.
.	.	.	.	.	.	.	.	.	.	.	.	.	.	.	.	32g 32G\	.	32dd\	.	32gg\	.	.	.	.	.	.	.	.	.	.	.	.	.	.	.	.	.	.
.	.	.	.	.	.	.	.	.	.	.	.	.	.	.	.	32g 32G\	.	32dd\	.	32gg\	.	.	.	.	.	.	.	.	.	.	.	.	.	.	.	.	.	.
.	.	.	.	.	.	.	.	.	.	.	.	.	.	.	.	32g 32G\	.	32dd\	.	32gg\	.	.	.	.	.	.	.	.	.	.	.	.	.	.	.	.	.	.
.	.	.	.	.	.	.	.	.	.	.	.	.	.	.	.	32g 32G\	.	32dd\	.	32gg\	.	.	.	.	.	.	.	.	.	.	.	.	.	.	.	.	.	.
.	.	.	.	.	.	.	.	.	.	.	.	.	.	.	.	32g 32G\	.	32dd\	.	32gg\	.	.	.	.	.	.	.	.	.	.	.	.	.	.	.	.	.	.
.	.	.	.	.	.	.	.	.	.	.	.	.	.	.	.	32g 32G\	.	32dd\	.	32gg\	.	.	.	.	.	.	.	.	.	.	.	.	.	.	.	.	.	.
.	.	.	.	.	.	.	.	.	.	.	.	.	.	.	.	32g 32G\JJJ	.	32dd\JJJ	.	32gg\JJJ	.	.	.	.	.	.	.	.	.	.	.	.	.	.	.	.	.	.
=26	=26	=26	=26	=26	=26	=26	=26	=26	=26	=26	=26	=26	=26	=26	=26	=26	=26	=26	=26	=26	=26	=26	=26	=26	=26	=26	=26	=26	=26	=26	=26	=26	=26	=26	=26	=26	=26	=26
!	!	!	!	!	!	!	!	!	!	!LO:TX:a:t=P:problem=brak początku łuku	!	!	!LO:TX:a:t=P:problem=brak początku łuku	!	!	!	!	!	!	!	!	!	!	!	!	!	!	!	!	!	!	!	!	!	!	!	!	!
4C\	.	4C/	.	4c\	-re-	.	(4c\	-re-	.	(2.g\]	.	.	(2.gg\]	.	.	32e\LLL	.	32cc\LLL	.	32gg\LLL	.	4C\	.	8ccX/	.	2.g/]	2.rf	.	4c\	.	2.gg/]	4cc\	.	4een\	.	(2.ggg/]	4ccc\	.
.	.	.	.	.	.	.	.	.	.	.	.	.	.	.	.	32e\	.	32cc\	.	32gg\	.	.	.	.	.	.	.	.	.	.	.	.	.	.	.	.	.	.
.	.	.	.	.	.	.	.	.	.	.	.	.	.	.	.	32e\	.	32cc\	.	32gg\	.	.	.	.	.	.	.	.	.	.	.	.	.	.	.	.	.	.
.	.	.	.	.	.	.	.	.	.	.	.	.	.	.	.	32e\	.	32cc\	.	32gg\	.	.	.	.	.	.	.	.	.	.	.	.	.	.	.	.	.	.
.	.	.	.	.	.	.	.	.	.	.	.	.	.	.	.	32e\	.	32cc\	.	32gg\	.	.	.	8r	.	.	.	.	.	.	.	.	.	.	.	.	.	.
.	.	.	.	.	.	.	.	.	.	.	.	.	.	.	.	32e\	.	32cc\	.	32gg\	.	.	.	.	.	.	.	.	.	.	.	.	.	.	.	.	.	.
.	.	.	.	.	.	.	.	.	.	.	.	.	.	.	.	32e\	.	32cc\	.	32gg\	.	.	.	.	.	.	.	.	.	.	.	.	.	.	.	.	.	.
.	.	.	.	.	.	.	.	.	.	.	.	.	.	.	.	32e\JJJ	.	32cc\JJJ	.	32gg\	.	.	.	.	.	.	.	.	.	.	.	.	.	.	.	.	.	.
!	!	!	!	!LO:TX:a:t=P:problem=skreślona nuta	!	!	!	!	!	!	!	!	!	!	!	!	!	!	!	!	!	!	!	!	!	!	!	!	!	!	!	!	!	!	!	!	!	!
4D\	.	4D/	.	4D\	.	.	4d 4Bn\)	.	.	.	.	.	.	.	.	32d\LLL	.	32bn\LLL	.	32gg\	.	4D\	.	4r	.	.	.	.	4Bn\	.	.	4bn\	.	4dd\	.	.	4bbn\	.
.	.	.	.	.	.	.	.	.	.	.	.	.	.	.	.	32d\	.	32bn\	.	32gg\	.	.	.	.	.	.	.	.	.	.	.	.	.	.	.	.	.	.
.	.	.	.	.	.	.	.	.	.	.	.	.	.	.	.	32d\	.	32bn\	.	32gg\	.	.	.	.	.	.	.	.	.	.	.	.	.	.	.	.	.	.
.	.	.	.	.	.	.	.	.	.	.	.	.	.	.	.	32d\	.	32bn\	.	32gg\	.	.	.	.	.	.	.	.	.	.	.	.	.	.	.	.	.	.
.	.	.	.	.	.	.	.	.	.	.	.	.	.	.	.	32d\	.	32bn\	.	32gg\	.	.	.	.	.	.	.	.	.	.	.	.	.	.	.	.	.	.
.	.	.	.	.	.	.	.	.	.	.	.	.	.	.	.	32d\	.	32bn\	.	32gg\	.	.	.	.	.	.	.	.	.	.	.	.	.	.	.	.	.	.
.	.	.	.	.	.	.	.	.	.	.	.	.	.	.	.	32d\	.	32bn\	.	32gg\	.	.	.	.	.	.	.	.	.	.	.	.	.	.	.	.	.	.
.	.	.	.	.	.	.	.	.	.	.	.	.	.	.	.	32d\JJJ	.	32bn\JJJ	.	32gg\	.	.	.	.	.	.	.	.	.	.	.	.	.	.	.	.	.	.
!	!	!	!	!LO:TX:a:t=P:problem=skreślona nuta	!	!	!	!	!	!	!	!	!	!	!	!	!	!	!	!	!	!	!	!	!	!	!	!	!	!	!	!	!	!	!	!	!	!
4En\	.	4En/	.	4E\	-re]	.	4e 4B-X\	-re	.	.	.	.	.	.	.	32d-X\LLL	.	32b-X\LLL	.	32gg\	.	4En\)	.	4r	.	.	.	.	4B-X\)	.	.	4b-X\)	.	4dd-X\)	.	.	4bb-X\)	.
.	.	.	.	.	.	.	.	.	.	.	.	.	.	.	.	32d-X\	.	32b-X\	.	32gg\	.	.	.	.	.	.	.	.	.	.	.	.	.	.	.	.	.	.
.	.	.	.	.	.	.	.	.	.	.	.	.	.	.	.	32d-X\	.	32b-X\	.	32gg\	.	.	.	.	.	.	.	.	.	.	.	.	.	.	.	.	.	.
.	.	.	.	.	.	.	.	.	.	.	.	.	.	.	.	32d-X\	.	32b-X\	.	32gg\	.	.	.	.	.	.	.	.	.	.	.	.	.	.	.	.	.	.
.	.	.	.	.	.	.	.	.	.	.	.	.	.	.	.	32d-X\	.	32b-X\	.	32gg\	.	.	.	.	.	.	.	.	.	.	.	.	.	.	.	.	.	.
.	.	.	.	.	.	.	.	.	.	.	.	.	.	.	.	32d-X\	.	32b-X\	.	32gg\	.	.	.	.	.	.	.	.	.	.	.	.	.	.	.	.	.	.
.	.	.	.	.	.	.	.	.	.	.	.	.	.	.	.	32d-X\	.	32b-X\	.	32gg\	.	.	.	.	.	.	.	.	.	.	.	.	.	.	.	.	.	.
.	.	.	.	.	.	.	.	.	.	.	.	.	.	.	.	32d-X\JJJ	.	32b-X\JJJ	.	32gg\JJJ	.	.	.	.	.	.	.	.	.	.	.	.	.	.	.	.	.	.
*	*	*	*	*	*	*	*	*	*	*	*	*	*	*	*	*Xtremolo	*	*Xtremolo	*	*Xtremolo	*	*	*	*	*	*	*	*	*	*	*	*	*	*	*	*	*	*
*	*	*	*	*	*	*	*	*	*	*	*	*	*	*	*	*	*	*	*	*	*	*	*	*	*	*v	*v	*	*	*	*	*	*	*	*	*	*	*
!!LO:PB:g=original
=27	=27	=27	=27	=27	=27	=27	=27	=27	=27	=27	=27	=27	=27	=27	=27	=27	=27	=27	=27	=27	=27	=27	=27	=27	=27	=27	=27	=27	=27	=27	=27	=27	=27	=27	=27	=27	=27
!	!	!	!	!	!	!	!	!	!	!	!	!	!	!	!	!	!	!	!	!	!	!	!	!	!	!	!	!	!	!	!	!	!	!	!LO:TX:a:t=P:problem=brak zakończenia ligatury	!	!
8F\L	.	8F\L	.	[2.F\	no-	.	4F/	no-	.	(2a\)	.	.	(4.ff\)	.	.	8c\L	.	(2a/	.	(4.ff\	.	4F\	.	2.r	.	8fL 8F/	.	2.c\	.	[2.ff/	(2.a\	.	(2.cc\	.	(4.fff^/)	(4aa\	.
16r	.	16r	.	.	.	.	.	.	.	.	.	.	.	.	.	16r	.	.	.	.	.	.	.	.	.	16r	.	.	.	.	.	.	.	.	.	.	.
16F\Jk|	.	16F\Jk|	.	.	.	.	.	.	.	.	.	.	.	.	.	16f\Jk	.	.	.	.	.	.	.	.	.	16fJk 16F/	.	.	.	.	.	.	.	.	.	.	.
[<2F^^\	.	[<2F^^\	.	.	.	.	4F/	-bis	.	.	.	.	.	.	.	[2f\	.	.	.	.	.	4r	.	.	.	[2f [2F/	.	.	.	.	.	.	.	.	.	8ff\)	.
.	.	.	.	.	.	.	.	.	.	.	.	.	8ee-X\)	.	.	.	.	.	.	8ee-X\L)	.	.	.	.	.	.	.	.	.	.	.	.	.	.	8eee/L	8r	.
.	.	.	.	.	.	.	4r	.	.	4f\)	-cta	.	8dd\L	-cta	.	.	.	8f/L)	.	8dd\	.	4r	.	.	.	.	.	.	.	.	.	.	.	.	8ddd/	4r	.
.	.	.	.	.	.	.	.	.	.	.	.	.	8cc\J	.	.	.	.	8e-X/J	.	8cc\J	.	.	.	.	.	.	.	.	.	.	.	.	.	.	8ccc/J)	.	.
=28	=28	=28	=28	=28	=28	=28	=28	=28	=28	=28	=28	=28	=28	=28	=28	=28	=28	=28	=28	=28	=28	=28	=28	=28	=28	=28	=28	=28	=28	=28	=28	=28	=28	=28	=28	=28	=28
*rep	*	*	*	*	*	*	*	*	*	*	*	*	*	*	*	*	*	*	*	*	*	*	*	*	*	*	*	*	*	*	*	*	*	*	*	*	*
8F\L]	.	8F\L]	.	2.F\_	.	.	2.r	.	.	8.f\	Tri-	.	(4.cc\	Tri-	.	8f\L]	.	2d/	.	(4.cc\	.	2.r	.	2.r	.	8f]L 8F/]	.	(2d\	.	2.ff/_	2b-\)	.	2.b-\	.	(<4.ccc^</	2.re	.
16r	.	16r	.	.	.	.	.	.	.	.	.	.	.	.	.	16r	.	.	.	.	.	.	.	.	.	16r	.	.	.	.	.	.	.	.	.	.	.
16F\Jk|	.	16F\Jk	.	.	.	.	.	.	.	16f\	-ni-	.	.	.	.	16f\Jk	.	.	.	.	.	.	.	.	.	16fJk 16F/	.	.	.	.	.	.	.	.	.	.	.
[2F^^\	.	2F\	.	.	.	.	.	.	.	4f\	-tas	.	.	.	.	4f\	.	.	.	.	.	.	.	.	.	[2f [2F/	.	.	.	.	.	.	.	.	.	.	.
.	.	.	.	.	.	.	.	.	.	.	.	.	8b-\)	.	.	.	.	.	.	8b-\L)	.	.	.	.	.	.	.	.	.	.	.	.	.	.	8bb-/	.	.
.	.	.	.	.	.	.	.	.	.	4r	.	.	8a\L	-ni-	.	[4e-X\	.	8c/L	.	8a\	.	.	.	.	.	.	.	4f\)	.	.	4rg	.	.	.	8aa/L	.	.
.	.	.	.	.	.	.	.	.	.	.	.	.	8g\J	.	.	.	.	8B-/J	.	8g\J	.	.	.	.	.	.	.	.	.	.	.	.	.	.	8gg/J)	.	.
*Xrep	*	*	*	*	*	*	*	*	*	*	*	*	*	*	*	*	*	*	*	*	*	*	*	*	*	*	*	*	*	*	*	*	*	*	*	*	*
=29	=29	=29	=29	=29	=29	=29	=29	=29	=29	=29	=29	=29	=29	=29	=29	=29	=29	=29	=29	=29	=29	=29	=29	=29	=29	=29	=29	=29	=29	=29	=29	=29	=29	=29	=29	=29	=29
*rep	*	*	*	*	*	*	*	*	*	*	*	*	*	*	*	*	*	*	*	*	*	*	*	*	*	*	*	*	*	*	*	*	*	*	*	*	*
*	*	*	*	*	*	*	*	*	*	*	*	*	*	*	*	*	*	*	*	*	*	*	*	*	*	*^	*	*	*	*	*	*	*	*	*	*	*
!	!	!	!	!	!	!	!	!	!	!	!	!	!	!	!	!LO:TX:t=P:problem=mixed beam	!	!	!	!	!	!	!	!	!	!	!	!	!	!	!	!	!	!	!	!	!	!
8F\L]	.	(4.f^<\	.	4F\]	-bis	.	(4.f^\	mi-	.	2.r	.	.	4f/	-tas.	.	8e-\L]	.	(>2A/	.	(4f/	.	2.r	.	2.r	.	8f]L 8F/]	8F\L	.	(4.f^\	.	4.ff^</]	2.rg	.	2.a/	.	4ff/	2.rg	.
16r	.	.	.	.	.	.	.	.	.	.	.	.	.	.	.	16r	.	.	>	.	.	.	.	.	.	16r	16ryy	.	.	.	.	.	.	.	.	.	.	.
16F\Jk|	.	.	.	.	.	.	.	.	.	.	.	.	.	.	.	16F/Jk	.	.	.	.	>	.	.	.	.	16F/Jk	16F\Jk	.	.	.	.	.	.	.	.	.	.	.
[2F^^\	.	.	.	4r	.	.	.	.	.	.	.	.	4r	.	.	[2F/	.	.	.	4.a/	.	.	.	.	.	[2F/	2F\	.	.	.	.	.	.	.	.	4rgg	.	.
.	.	8e-X\L)	.	.	.	.	8e-X\)	.	.	.	.	.	.	.	.	.	.	.	.	.	.	.	.	.	.	.	.	.	8e-X\L	.	8ee-X/L	.	.	.	.	.	.	.
.	.	8d\	.	4r	.	.	8d\L	-se-	.	.	.	.	4r	.	.	.	.	[4f/	.	.	.	.	.	.	.	.	.	.	8d\	.	8dd/	.	.	.	.	4rgg	.	.
.	.	8c\J	.	.	.	.	8c\J	.	.	.	.	.	.	.	.	.	.	.	.	8cc/	.	.	.	.	.	.	.	.	8c\J)	.	8cc/J	.	.	.	.	.	.	.
*	*	*	*	*	*	*	*	*	*	*	*	*	*	*	*	*	*	*	*	*	*	*	*	*	*	*	*	*	*	*	*	*	*	*	*	*v	*v	*
*Xrep	*	*	*	*	*	*	*	*	*	*	*	*	*	*	*	*	*	*	*	*	*	*	*	*	*	*	*	*	*	*	*	*	*	*	*	*	*
=30	=30	=30	=30	=30	=30	=30	=30	=30	=30	=30	=30	=30	=30	=30	=30	=30	=30	=30	=30	=30	=30	=30	=30	=30	=30	=30	=30	=30	=30	=30	=30	=30	=30	=30	=30	=30	=30
*rep	*	*	*	*	*	*	*	*	*	*	*	*	*	*	*	*	*	*	*	*	*	*	*	*	*	*	*	*	*	*	*	*	*	*	*	*	*
8F\L]	.	(4.c^\	.	4r	.	.	(4.c^\	-re-	.	2.r	.	.	2.r	.	.	8F/L]	.	4f/_	.	4ee-X\	.	2.r	.	2.r	.	8F/L]	8F\L	.	(4.c\	.	4.cc/	2.rg	.	4f/)	.	2.r	.
16r	.	.	.	.	.	.	.	.	.	.	.	.	.	.	.	16r	.	.	.	.	.	.	.	.	.	16rB	16ryy	.	.	.	.	.	.	.	.	.	.
16F\Jk|	.	.	.	.	.	.	.	.	.	.	.	.	.	.	.	16F/Jk	.	.	.	.	.	.	.	.	.	16F/Jk	16F\Jk	.	.	.	.	.	.	.	.	.	.
2F^^\	.	.	.	4r	.	.	.	.	.	.	.	.	.	.	.	2F/	.	8f/])	]	4dd\	.	.	.	.	.	4F/	4F\	.	.	.	.	.	.	4r	.	.	.
.	.	8B-\L	.	.	.	.	8B-\)	.	.	.	.	.	.	.	.	.	.	8r	.	.	.	.	.	.	.	.	.	.	8B-X\L)	.	8b-/L	.	.	.	.	.	.
.	.	8A\	.	[4F\	mi	.	8A\L	-re,	.	.	.	.	.	.	.	.	.	4r	.	8ff\)	.	.	.	.	.	4f/	4r	.	8A\	.	8a/	.	.	4r	.	.	.
.	.	8G\J)	.	.	.	.	8G\J	.	.	.	.	.	.	.	.	.	.	.	.	8r	]	.	.	.	.	.	.	.	8G\J	.	8g/J	.	.	.	.	.	.
.	.	.	.	.	.	.	.	.	.	.	.	.	.	.	.	.	p	.	p	.	.	.	.	.	.	.	.	.	.	p	.	.	p	.	.	.	.
*Xrep	*	*	*	*	*	*	*	*	*	*	*	*	*	*	*	*	*	*	*	*	*	*	*	*	*	*	*	*	*	*	*	*	*	*	*	*	*
=31	=31	=31	=31	=31	=31	=31	=31	=31	=31	=31	=31	=31	=31	=31	=31	=31	=31	=31	=31	=31	=31	=31	=31	=31	=31	=31	=31	=31	=31	=31	=31	=31	=31	=31-	=31	=31-	=31
*	*	*	*	*	*	*	*	*	*	*	*	*	*	*	*	*rep	*	*	*	*	*	*	*	*	*	*	*	*	*	*	*	*	*	*	*	*	*
!	!	!	!	!	!	!	!	!	!	!	!	!	!	!	!	!	!	!	!	!	!LO:DY:rj	!	!	!	!	!	!	!LO:DY:rj	!	!	!	!	!	!	!LO:DY:rj	!	!LO:DY:rj
[2.F\	.	8F\L	.	2F\]	.	.	2.G/	mi-	.	2.e-X\	mi-	.	2.g\	mi-	.	8F/L	.	[2.e-X/	.	2.g/	p	2.r	.	2.r	.	2.g/	2.rf	p	(2.G\	.	8r	2.rd	.	([<2.ee-X\	p	2cc^/	p
.	.	16r	.	.	.	.	.	.	.	.	.	.	.	.	.	16r	.	.	.	.	.	.	.	.	.	.	.	.	.	.	(<8c/L	.	.	.	.	.	.
.	.	16F\Jk	.	.	.	.	.	.	.	.	.	.	.	.	.	16F/Jk	.	.	.	.	.	.	.	.	.	.	.	.	.	.	.	.	.	.	.	.	.
.	.	[2F\	.	.	.	.	.	.	.	.	.	.	.	.	.	2F/	.	.	.	.	.	.	.	.	.	.	.	.	.	.	8e-X/	.	.	.	.	.	.
.	.	.	.	.	.	.	.	.	.	.	.	.	.	.	.	.	.	.	.	.	.	.	.	.	.	.	.	.	.	.	8g/	.	.	.	.	.	.
.	.	.	.	4ryy	.	.	.	.	.	.	.	.	.	.	.	.	.	.	.	.	.	.	.	.	.	.	.	.	.	.	8cc/	.	.	.	.	4r	.
.	.	.	.	.	.	.	.	.	.	.	.	.	.	.	.	.	.	.	.	.	.	.	.	.	.	.	.	.	.	.	8b-/J)	.	.	.	.	.	.
*	*	*	*	*	*	*	*	*	*	*	*	*	*	*	*	*Xrep	*	*	*	*	*	*	*	*	*	*	*	*	*	*	*	*	*	*	*	*	*
!!LO:PB:g=original
=32	=32	=32	=32	=32	=32	=32	=32	=32	=32	=32	=32	=32	=32	=32	=32	=32	=32	=32	=32	=32	=32	=32	=32	=32	=32	=32	=32	=32	=32	=32	=32	=32	=32	=32	=32	=32	=32
*	*	*rep	*	*	*	*	*	*	*	*	*	*	*	*	*	*rep	*	*	*	*	*	*	*	*	*	*	*	*	*	*	*	*	*	*	*	*	*
!	!	!	!	!	!	!	!	!	!	!	!	!	!	!	!	!	!	!	!	!	!	!	!	!	!	!	!	!	!	!	!	!	!	!LO:TX:a:t=P:problem=brak zakończenia ligatury	!	!	!
2.F\_	.	8F\L]	.	2.F\	.	.	2.A\	-se-	.	2e-X\	-se-	.	2.f/	-se-	.	8F/L	.	2.e-/]	.	(2.a/	.	2.r	.	2.r	.	[2.f/	2.rf	.	2.A\	.	4a/	2.rf	.	2.ee-\]	.	8r	.
.	.	16r	.	.	.	.	.	.	.	.	.	.	.	.	.	16r	.	.	.	.	.	.	.	.	.	.	.	.	.	.	.	.	.	.	.	(8ff\L	.
.	.	16F\Jk	.	.	.	.	.	.	.	.	.	.	.	.	.	16F/Jk	.	.	.	.	.	.	.	.	.	.	.	.	.	.	.	.	.	.	.	.	.
.	.	[2F\	.	.	.	.	.	.	.	.	.	.	.	.	.	2F/	.	.	.	.	.	.	.	.	.	.	.	.	.	.	4r	.	.	.	.	8aa\	.
.	.	.	.	.	.	.	.	.	.	.	.	.	.	.	.	.	.	.	.	.	.	.	.	.	.	.	.	.	.	.	.	.	.	.	.	8ccc\	.
.	.	.	.	.	.	.	.	.	.	4ryy	.	.	.	.	.	.	.	.	.	.	.	.	.	.	.	.	.	.	.	.	4r	.	.	.	.	8fff\	.
.	.	.	.	.	.	.	.	.	.	.	.	.	.	.	.	.	.	.	.	.	.	.	.	.	.	.	.	.	.	.	.	.	.	.	.	8eee-X\J	.
*	*	*Xrep	*	*	*	*	*	*	*	*	*	*	*	*	*	*Xrep	*	*	*	*	*	*	*	*	*	*	*	*	*	*	*	*	*	*	*	*	*
=33	=33	=33	=33	=33	=33	=33	=33	=33	=33	=33	=33	=33	=33	=33	=33	=33	=33	=33	=33	=33	=33	=33	=33	=33	=33	=33	=33	=33	=33	=33	=33	=33	=33	=33	=33	=33	=33
*	*	*rep	*	*	*	*	*	*	*	*	*	*	*	*	*	*rep	*	*	*	*	*	*	*	*	*	*	*	*	*	*	*	*	*	*	*	*	*
!	!	!	!	!LO:TX:t=P:problem=łuk niebieskim ołówkiem	!	!	!	!	!	!	!	!	!	!	!	!	!	!	!	!	!	!	!	!	!	!	!	!	!	!	!	!	!	!	!	!	!
2.F\_	.	8F\L]	.	2.F\	.	.	(2.B-\	-re-	.	[2.d\	-re-	.	[2.f/	-re-	.	8F/L	.	2.d/	.	(2.b-\)	.	2.r	.	2.r	.	2.f/_	2.rf	.	2.B-\	.	8r	2.rd	.	2.dd\	.	4ddd\)	.
.	.	16r	.	.	.	.	.	.	.	.	.	.	.	.	.	16r	.	.	.	.	.	.	.	.	.	.	.	.	.	.	(8d/L	.	.	.	.	.	.
.	.	16F\Jk	.	.	.	.	.	.	.	.	.	.	.	.	.	16F/Jk	.	.	.	.	.	.	.	.	.	.	.	.	.	.	.	.	.	.	.	.	.
.	.	[2F\	.	.	.	.	.	.	.	.	.	.	.	.	.	2F/	.	.	.	.	.	.	.	.	.	.	.	.	.	.	8f/	.	.	.	.	2ryy	.
.	.	.	.	.	.	.	.	.	.	.	.	.	.	.	.	.	.	.	.	.	.	.	.	.	.	.	.	.	.	.	8b-X/	.	.	.	.	.	.
.	.	.	.	.	.	.	.	.	.	.	.	.	.	.	.	.	.	.	.	.	.	.	.	.	.	.	.	.	.	.	8dd/	.	.	.	.	.	.
.	.	.	.	.	.	.	.	.	.	.	.	.	.	.	.	.	.	.	.	.	.	.	.	.	.	.	.	.	.	.	8cc/J	.	.	.	.	.	.
*	*	*Xrep	*	*	*	*	*	*	*	*	*	*	*	*	*	*Xrep	*	*	*	*	*	*	*	*	*	*	*	*	*	*	*	*	*	*	*	*	*
=34	=34	=34	=34	=34	=34	=34	=34	=34	=34	=34	=34	=34	=34	=34	=34	=34	=34	=34	=34	=34	=34	=34	=34	=34	=34	=34	=34	=34	=34	=34	=34	=34	=34	=34	=34	=34	=34
*	*	*rep	*	*	*	*	*	*	*	*	*	*	*	*	*	*rep	*	*	*	*	*	*	*	*	*	*	*	*	*	*	*	*	*	*	*	*	*
2.F\_	.	8F\L]	.	2.F\	.	.	2.Bn\)	.	.	2.d\]	.	.	2.f/]	.	.	8F/L	.	2.g/	.	2bn\)	.	2.r	.	2.r	.	2f/]	2.rf	.	2.Bn\	.	4bn/)	2.r	.	2.dd\	.	8r	.
.	.	16r	.	.	.	.	.	.	.	.	.	.	.	.	.	16r	.	.	.	.	.	.	.	.	.	.	.	.	.	.	.	.	.	.	.	(8gg\L	.
.	.	16F\Jk	.	.	.	.	.	.	.	.	.	.	.	.	.	16F/Jk	.	.	.	.	.	.	.	.	.	.	.	.	.	.	.	.	.	.	.	.	.
.	.	[2F\	.	.	.	.	.	.	.	.	.	.	.	.	.	2F/	.	.	.	.	.	.	.	.	.	.	.	.	.	.	2r	.	.	.	.	8bbn\	.
.	.	.	.	.	.	.	.	.	.	.	.	.	.	.	.	.	.	.	.	.	.	.	.	.	.	.	.	.	.	.	.	.	.	.	.	8ddd\	.
.	.	.	.	.	.	.	.	.	.	.	.	.	.	.	.	.	.	.	.	([4gg\	.	.	.	.	.	4r	.	.	.	.	.	.	.	.	.	8ggg\	.
.	.	.	.	.	.	.	.	.	.	.	.	.	.	.	.	.	.	.	.	.	.	.	.	.	.	.	.	p	.	.	.	.	.	.	.	8fff\J)	.
*	*	*Xrep	*	*	*	*	*	*	*	*	*	*	*	*	*	*Xrep	*	*	*	*	*	*	*	*	*	*	*	*	*	*	*	*	*	*	*	*	*
=35	=35	=35	=35	=35	=35	=35	=35	=35	=35	=35	=35	=35	=35	=35	=35	=35	=35	=35	=35	=35	=35	=35	=35	=35	=35	=35	=35	=35	=35	=35	=35	=35	=35	=35	=35	=35	=35
*	*	*	*	*	*	*	*	*	*	*	*	*	*	*	*	*	*	*	*	*	*	*	*	*	*	*	*	*	*	*	*	*	*	*	*	*^	*
!	!	!LO:TX:a:t=P:problem=brak zakończenia ligatury	!	!	!	!	!	!	!	!	!	!	!	!	!	!	!	!	!	!	!	!	!	!	!	!	!	!	!	!	!	!	!	!	!	!LO:TX:b:t=Fl. 2do 8va alta.	!	!
4F\]	.	4F\]	.	4F\	.	.	4c\	-re,	.	4c\	-re	.	4f/	-re	.	4B-X/	.	8B-/L	.	8.gg\L]	.	2.r	.	2.r	.	[2.f/	[2.F\	.	(4G\)	.	8.gg/L	4b-\	.	(4b-X/)	.	(4eeen\	4g\	.
.	.	.	.	.	.	.	.	.	.	.	.	.	.	.	.	.	.	8c/J	.	.	.	.	.	.	.	.	.	.	.	.	.	.	.	.	.	.	.	.
.	.	.	.	.	.	.	.	.	.	.	.	.	.	.	.	.	.	.	.	16cc\Jk	.	.	.	.	.	.	.	.	.	.	16cc/Jk	.	.	.	.	.	.	.
2F^\	.	2F^\	.	4F\	.	.	4F/	mi-	.	4c\	mi-	.	4a\	mi-	.	2A/	.	(2f/	.	4ff\	.	.	.	.	.	.	.	.	4c\	.	4ff/	2a\	.	2a/	.	8.fff\L	(2f\	.
.	.	.	.	.	.	.	.	.	.	.	.	.	.	.	.	.	.	.	.	.	.	.	.	.	.	.	.	.	.	.	.	.	.	.	.	16ccc\Jk	.	.
.	.	.	.	4F\	.	.	4F/	-se-	.	4d\	-se-	.	4a\	-se-	.	.	.	.	.	8.ff\L)	.	.	.	.	.	.	.	.	4F\	.	8.ff/L	.	.	.	.	4ddd\	.	.
.	.	.	.	.	.	.	.	.	.	.	.	.	.	.	.	.	.	.	.	16b-\Jk	.	.	.	.	.	.	.	.	.	.	16b-/Jk	.	.	.	.	.	.	.
=36	=36	=36	=36	=36	=36	=36	=36	=36	=36	=36	=36	=36	=36	=36	=36	=36	=36	=36	=36	=36	=36	=36	=36	=36	=36	=36	=36	=36	=36	=36	=36	=36	=36	=36	=36	=36	=36	=36
2F^\	.	2F^\	.	2.F\	.	.	(2G/	-re	.	(2e-X\	-re-	.	(2g\	-re-	.	2G/	.	2e-X/)	.	4ee-X\	.	2.r	.	2.r	.	2.f/]	2.F\]	.	4B-X\	.	4ee-X/	2g\	.	2g/	.	8.eee-X\L	2e-X\)	.
.	.	.	.	.	.	.	.	.	.	.	.	.	.	.	.	.	.	.	.	.	.	.	.	.	.	.	.	.	.	.	.	.	.	.	.	16bb-\Jk	.	.
.	.	.	.	.	.	.	.	.	.	.	.	.	.	.	.	.	.	.	.	8.cc/L	.	.	.	.	.	.	.	.	4BB-\	.	8.cc/L	.	.	.	.	4ccc\	.	.
.	.	.	.	.	.	.	.	.	.	.	.	.	.	.	.	.	.	.	.	16f/Jk	.	.	.	.	.	.	.	.	.	.	16f/Jk	.	.	.	.	.	.	.
!	!	!	!	!	!	!	!	!	!	!	!	!	!	!	!	!	!	!	!	!LO:TX:a:t=P:problem=brak początku ligatury	!	!	!	!	!	!	!	!	!	!	!	!	!	!	!	!	!	!
[4F^\	.	(4F^\	.	.	.	.	4A/)	.	.	4d\)	.	.	4f\)	.	.	4G/	.	[4d/	.	[>4b-/	.	.	.	.	.	.	.	.	4F\)	.	(4b-/	8f\	.	4f/)	.	8.ddd\L	4d\	.
.	.	.	.	.	.	.	.	.	.	.	.	.	.	.	.	.	.	.	.	.	.	.	.	.	.	.	.	.	.	.	.	8r	.	.	.	.	.	.
.	.	.	.	.	.	.	.	.	.	.	.	.	.	.	.	.	.	.	.	.	.	.	.	.	.	.	.	.	.	.	.	.	.	.	.	16aa\Jk)	.	.
*	*	*	*	*	*	*	*	*	*	*	*	*	*	*	*	*	*	*	*	*	*	*	*	*	*	*v	*v	*	*	*	*v	*v	*	*	*	*	*	*
*	*	*	*	*	*	*	*	*	*	*	*	*	*	*	*	*	*	*	*	*	*	*	*	*	*	*clefF4	*	*	*	*	*	*	*	*	*	*
!!LO:PB:g=original
=37	=37	=37	=37	=37	=37	=37	=37	=37	=37	=37	=37	=37	=37	=37	=37	=37	=37	=37	=37	=37	=37	=37	=37	=37	=37	=37	=37	=37	=37	=37	=37	=37	=37	=37	=37	=37
!	!	!	!	!	!	!	!	!	!	!	!	!	!	!	!	!	!	!LO:TX:a:t=P:problem=brak zakończenia ligatury	!	!	!	!	!	!	!	!	!	!LO:TX:a:t=P:problem=koniec łuku na dole	!LO:DY:rj	!LO:TX:a:t=1mo	!LO:DY:rj	!	!	!	!	!LO:DY:t=p.
4F\]	.	8G\L	.	4F\	.	.	4B-\	.	.	4d\	-re,	.	4f/	-re,	.	8G/L	.	(>4d/]	.	(>4b-/]	.	2.r	.	2.r	.	[2.FF [2.FFF/	p	(<8G/L	p	(4f\)	p	4f/	p	(4bb-/	4dd\	p
.	.	8D\J	.	.	.	.	.	.	.	.	.	.	.	.	.	8D/J	.	.	.	.	.	.	.	.	.	.	.	8D/J	.	.	.	.	.	.	.	.
2F\	.	4E-X\	.	4F\	.	.	4c\	.	.	4c\	mi-	.	4e-X/	mi-	.	4E-X/	.	2c/	.	4cc/	.	.	.	.	.	.	.	4E-X/	.	(<2e-X\	.	2e-X/	.	8ccc/L	2cc\	.
.	.	.	.	.	.	.	.	.	.	.	.	.	.	.	.	.	.	.	.	.	.	.	.	.	.	.	.	.	.	.	.	.	.	8gg/J	.	.
.	.	8F\L	.	4F\	.	.	4A\	.	.	4c\	-se-	.	4e-/	-se-	.	8F/L	.	.	.	4a/	.	.	.	.	.	.	.	8F/L	.	.	.	.	.	4aa/	.	.
.	.	8C\J	.	.	.	.	.	.	.	.	.	.	.	.	.	8C/J	.	.	.	.	.	.	.	.	.	.	.	8C/J	.	.	.	.	.	.	.	.
=38	=38	=38	=38	=38	=38	=38	=38	=38	=38	=38	=38	=38	=38	=38	=38	=38	=38	=38	=38	=38	=38	=38	=38	=38	=38	=38	=38	=38	=38	=38	=38	=38	=38	=38	=38	=38
2F\	.	4D\	.	(4F\	.	.	(4F/	.	.	2B-/	-re-	.	(4d/	-re-	.	4D/	.	2B-/	.	4b-/	.	2.r	.	2.r	.	2FF] 2FFF/]	.	4D/	.	2d/)	.	8d/	.	8bb-/L	2b-\	.
.	.	.	.	.	.	.	.	.	.	.	.	.	.	.	.	.	.	.	.	.	.	.	.	.	.	.	.	.	.	.	.	8r	.	8ff/J	.	.
.	.	8E-X\L	.	4E-X\)	.	.	4G/)	.	.	.	.	.	2c/)	-re.	.	8E-X/L	.	.	.	4g/	.	.	.	.	.	.	.	8E-X/L	.	.	.	4r	.	4gg/	.	.
.	.	8C\J	.	.	.	.	.	.	.	.	.	.	.	.	.	8C/J	.	.	.	.	.	.	.	.	.	.	.	8D/J	.	.	.	.	.	.	.	.
!	!	!	!	!	!	!	!	!	!	!	!	!	!	!	!	!	!	!	!	!	!	!	!	!	!	!LO:TX:b:i:t=muta in B. basso.	!	!	!	!	!	!	!	!	!	!
4F\	.	4F\)	.	4C\	.	.	4F/	.	.	4A/	-re	.	.	.	.	4F/	.	[4A/	.	8f/L	.	.	.	.	.	4r	.	4F/	.	[4c/	.	4r	.	8ff/L	[4a\	.
.	.	.	.	.	.	.	.	.	.	.	.	.	.	.	.	.	.	.	.	8e/J	.	.	.	.	.	.	.	.	.	.	.	.	.	8ee/J	.	.
=39	=39	=39	=39	=39	=39	=39	=39	=39	=39	=39	=39	=39	=39	=39	=39	=39	=39	=39	=39	=39	=39	=39	=39	=39	=39	=39	=39	=39	=39	=39	=39	=39	=39	=39	=39	=39
!	!	!	!	!	!	!LO:HP:a	!	!	!LO:HP:a	!	!	!	!	!	!	!	!	!	!LO:HP:a	!	!	!	!	!	!	!	!	!	!	!	!LO:DY:a	!	!	!	!	!
(4F#X\	.	(4F#X\	.	(4C/	.	>	(4F#X/	mi-	>	4A/	mi-	>	2d/	mi-	.	(4F#X/	>	(4A/]	>	2d/)	.	2.r	.	2.r	.	2.r	.	(4F#X\	>	(4c/]	>	2.r	.	2dd/	(4a\]	>
8G\)	.	8G\)	.	8BB-/)	.	]	8G/)	.	]	8B-/	.	]	.	.	.	8G/)	]	8B-/))	]	.	.	.	.	.	.	.	.	8G\))	]	8B-/))	]	.	.	.	8b-\)	]
8r	.	8r	.	8r	.	.	8r	.	.	8r	.	.	.	.	.	8r	.	8r	.	.	.	.	.	.	.	.	.	8r	.	8r	.	.	.	.	8rd	.
8E-X\	.	8E-X\	.	8E-X\	.	.	4B-\	-se-	.	4e-X\	-se-	.	4g/	-se-	.	8G/	.	4r	.	4r	.	.	.	.	.	.	.	8E-X\	.	4r	.	.	.	8b-/L	4r	.
8r	.	8r	.	8r	.	.	.	.	.	.	.	.	.	.	.	8r	.	.	.	.	.	.	.	.	.	.	.	8r	.	.	.	.	.	(<8cc/J)	.	.
*	*	*	*	*	*	*	*	*	*	*	*	*	*	*	*	*	*	*	*	*	*	*	*	*	*	*	*	*	*	*	*	*	*	*v	*v	*
=40	=40	=40	=40	=40	=40	=40	=40	=40	=40	=40	=40	=40	=40	=40	=40	=40	=40	=40	=40	=40	=40	=40	=40	=40	=40	=40	=40	=40	=40	=40	=40	=40	=40	=40	=40
*	*	*	*	*	*	*	*	*	*	*	*	*	*	*	*	*	*	*	*	*	*	*	*	*	*	*	*	*	*	*^	*	*	*	*	*
!	!	!	!	!	!	!	!	!	!	!	!	!	!	!	!	!	!	!	!	!	!	!	!	!	!	!	!	!LO:TX:a:t=P:problem=łuk na górze do kreski taktowej	!	!	!	!	!	!	!	!
2F\	.	2F\	.	2.F\	.	.	(2B-\	-re	.	(2d\	-re.	.	2.f/	-re.	.	4F/	.	2.r	.	2.r	.	2.r	.	2.r	.	2.r	.	2.F\	.	(2f/	2.rd	.	2.ryy	.	2dd/	.
.	.	.	.	.	.	.	.	.	.	.	.	.	.	.	.	4r	.	.	.	.	.	.	.	.	.	.	.	.	.	.	.	.	.	.	.	.
!	!	!	!	!	!	!	!	!	!	!LO:TX:a:t=attacca \nNo 3.	!	!	!	!	!	!	!	!	!	!	!	!	!	!	!	!	!	!	!	!	!	!	!	!	!	!
4r	.	4r	.	.	.	.	4A\)	.	.	4c\)	.	.	.	.	.	4r	.	.	.	.	.	.	.	.	.	.	.	.	.	4a/)	.	.	.	.	4dd/)	.
*	*	*	*	*	*	*	*	*	*	*	*	*	*	*	*	*	*	*	*	*	*	*	*	*	*	*	*	*	*	*v	*v	*	*	*	*	*
==	==	==	==	==	==	==	==	==	==	==	==	==	==	==	==	==	==	==	==	==	==	==	==	==	==	==	==	==	==	==	==	==	==	==	==
*-	*-	*-	*-	*-	*-	*-	*-	*-	*-	*-	*-	*-	*-	*-	*-	*-	*-	*-	*-	*-	*-	*-	*-	*-	*-	*-	*-	*-	*-	*-	*-	*-	*-	*-	*-
!!!system-decoration: (<g1,g2,g3>{g4}<g5>)
!!!RDF**kern: > = above
!!!RDF**kern: < = below
!!!RDF**kern: | = vertical stroke
!!!ENC: Marta Lawrence
!!!END: 2021-04-20
!!!ENC: Kamil Watkowski
!!!END: 2021-04-03
!!!YEC: Copyright 2022 Narodowy Instytut Fryderyka Chopina (https://polishscores.org)
!!!YEM: License CC-BY-4.0 (https://creativecommons.org/licenses/by/4.0)
